;FLAVOR:UltiGCode
;TIME:12559
;MATERIAL:7014
;MATERIAL2:0
;NOZZLE_DIAMETER:0.4
;Generated with Cura_SteamEngine 2.6.2

;LAYER_COUNT:78
;LAYER:0
M107
G0 F2880 X77.271 Y127.671 Z0.27
;TYPE:SKIRT
G1 F900 X77.93 Y127.306 E0.07119
G1 X78.626 Y126.985 E0.14362
G1 X79.219 Y126.755 E0.20373
G1 X79.837 Y126.601 E0.26391
G1 X80.751 Y126.518 E0.35064
G1 X142.263 Y126.521 E6.16353
G1 X142.899 Y126.561 E6.22375
G1 X143.524 Y126.68 E6.28387
G1 X144.022 Y126.836 E6.33319
G1 X144.501 Y127.013 E6.38144
G1 X145.083 Y127.27 E6.44157
G1 X145.629 Y127.599 E6.50181
G1 X146.35 Y128.204 E6.59075
G1 X146.889 Y128.749 E6.66318
G1 X147.308 Y129.229 E6.7234
G1 X147.663 Y129.758 E6.7836
G1 X148.057 Y130.603 E6.87171
G1 X148.229 Y131.082 E6.9198
G1 X148.407 Y131.694 E6.98003
G1 X148.506 Y132.323 E7.0402
G1 X148.528 Y132.801 E7.08542
G1 X148.527 Y134.209 E7.21848
G1 X148.487 Y134.844 E7.2786
G1 X148.367 Y135.47 E7.33884
G1 X148.223 Y135.935 E7.38484
G1 X148.05 Y136.412 E7.43279
G1 X147.796 Y136.996 E7.49297
G1 X147.47 Y137.544 E7.55323
G1 X147.166 Y137.946 E7.60086
G1 X146.836 Y138.339 E7.64935
G1 X146.396 Y138.8 E7.70957
G1 X145.903 Y139.202 E7.76969
G1 X145.09 Y139.676 E7.85862
G1 X144.396 Y139.999 E7.93096
G1 X143.803 Y140.231 E7.99113
G1 X143.186 Y140.387 E8.05127
G1 X142.59 Y140.446 E8.10787
G1 X142.503 Y180.282 E11.87238
G1 X142.462 Y180.918 E11.93261
G1 X142.341 Y181.543 E11.99277
G1 X142.192 Y182.02 E12.03999
G1 X141.836 Y182.99 E12.13764
G1 X141.58 Y183.572 E12.19772
G1 X141.252 Y184.119 E12.25799
G1 X140.955 Y184.508 E12.30424
G1 X140.292 Y185.296 E12.40156
G1 X139.853 Y185.757 E12.46172
G1 X139.359 Y186.159 E12.52191
G1 X138.935 Y186.431 E12.56951
G1 X138.036 Y186.947 E12.66746
G1 X137.465 Y187.228 E12.7276
G1 X136.821 Y187.448 E12.79192
G1 X136.32 Y187.582 E12.84092
G1 X135.696 Y187.707 E12.90106
G1 X135.009 Y187.754 E12.96614
G1 X87.977 Y187.751 E17.41066
G1 X87.341 Y187.711 E17.47088
G1 X86.715 Y187.592 E17.5311
G1 X86.226 Y187.439 E17.57952
G1 X85.255 Y187.082 E17.67728
G1 X84.672 Y186.825 E17.73749
G1 X84.126 Y186.498 E17.79763
G1 X83.739 Y186.202 E17.84368
G1 X82.951 Y185.539 E17.94099
G1 X82.49 Y185.1 E18.00115
G1 X82.088 Y184.606 E18.06134
G1 X81.816 Y184.182 E18.10894
G1 X81.3 Y183.283 E18.2069
G1 X81.019 Y182.712 E18.26704
G1 X80.798 Y182.062 E18.33191
G1 X80.665 Y181.562 E18.38081
G1 X80.54 Y180.937 E18.44104
G1 X80.494 Y180.262 E18.50498
G1 X80.452 Y140.458 E22.26646
G1 X79.946 Y140.41 E22.31449
G1 X79.324 Y140.271 E22.37472
G1 X79.007 Y140.168 E22.40621
G1 X78.541 Y139.999 E22.45306
G1 X77.957 Y139.745 E22.51324
G1 X77.409 Y139.419 E22.5735
G1 X76.706 Y138.84 E22.65956
G1 X76.162 Y138.303 E22.7318
G1 X75.737 Y137.828 E22.79203
G1 X75.376 Y137.303 E22.85224
G1 X74.965 Y136.447 E22.94197
G1 X74.788 Y135.967 E22.99032
G1 X74.606 Y135.357 E23.05047
G1 X74.501 Y134.728 E23.11074
G1 X74.475 Y134.222 E23.15862
G1 X74.472 Y132.81 E23.29205
G1 X74.511 Y132.174 E23.35227
G1 X74.637 Y131.515 E23.41567
G1 X74.705 Y131.255 E23.44107
G1 X74.905 Y130.65 E23.50128
G1 X75.178 Y130.075 E23.56143
G1 X75.465 Y129.618 E23.61243
G1 X75.905 Y128.993 E23.68466
G1 X76.304 Y128.496 E23.74489
G1 X76.761 Y128.053 E23.80504
G1 X77.271 Y127.671 E23.86525
G0 F2880 X78.076 Y127.623
G1 F900 X78.772 Y127.302 E23.93768
G1 X79.346 Y127.082 E23.99577
G1 X79.943 Y126.938 E24.05381
G1 X80.751 Y126.868 E24.13045
G1 X142.263 Y126.871 E29.94333
G1 X142.876 Y126.911 E30.00138
G1 X143.479 Y127.03 E30.05947
G1 X143.901 Y127.164 E30.10131
G1 X144.38 Y127.341 E30.14956
G1 X144.941 Y127.591 E30.2076
G1 X145.465 Y127.912 E30.26568
G1 X146.102 Y128.45 E30.34447
G1 X146.641 Y128.995 E30.4169
G1 X147.043 Y129.46 E30.47499
G1 X147.382 Y129.972 E30.53302
G1 X147.728 Y130.721 E30.61099
G1 X147.9 Y131.2 E30.65908
G1 X148.07 Y131.791 E30.7172
G1 X148.161 Y132.398 E30.7752
G1 X148.178 Y132.8 E30.81322
G1 X148.177 Y134.208 E30.94628
G1 X148.137 Y134.822 E31.00442
G1 X148.017 Y135.424 E31.06243
G1 X147.894 Y135.816 E31.10126
G1 X147.721 Y136.293 E31.14921
G1 X147.474 Y136.856 E31.20731
G1 X147.157 Y137.382 E31.26534
G1 X146.897 Y137.72 E31.30564
G1 X146.567 Y138.113 E31.35413
G1 X146.143 Y138.557 E31.41215
G1 X145.664 Y138.942 E31.47023
G1 X144.943 Y139.359 E31.54894
G1 X144.249 Y139.682 E31.62127
G1 X143.676 Y139.904 E31.67934
G1 X143.079 Y140.051 E31.73745
G1 X142.322 Y140.123 E31.80931
G1 X142.24 Y140.124 E31.81705
G1 X142.153 Y180.281 E35.6119
G1 X142.112 Y180.894 E35.66996
G1 X141.991 Y181.497 E35.72808
G1 X141.864 Y181.899 E35.76792
G1 X141.508 Y182.869 E35.86556
G1 X141.259 Y183.431 E35.92365
G1 X140.939 Y183.956 E35.98175
G1 X140.688 Y184.283 E36.02071
G1 X140.025 Y185.071 E36.11802
G1 X139.599 Y185.514 E36.1761
G1 X139.12 Y185.899 E36.23418
G1 X138.761 Y186.127 E36.27437
G1 X137.862 Y186.643 E36.37232
G1 X137.31 Y186.914 E36.43043
G1 X136.731 Y187.11 E36.4882
G1 X136.23 Y187.244 E36.53721
G1 X135.627 Y187.363 E36.59529
G1 X135.009 Y187.404 E36.65382
G1 X87.977 Y187.401 E41.09834
G1 X87.364 Y187.361 E41.15639
G1 X86.761 Y187.242 E41.21448
G1 X86.347 Y187.111 E41.25551
G1 X85.376 Y186.754 E41.35328
G1 X84.814 Y186.505 E41.41137
G1 X84.289 Y186.185 E41.46947
G1 X83.964 Y185.935 E41.50822
G1 X83.176 Y185.272 E41.60553
G1 X82.733 Y184.846 E41.66361
G1 X82.348 Y184.367 E41.72169
G1 X82.12 Y184.008 E41.76188
G1 X81.604 Y183.109 E41.85983
G1 X81.333 Y182.557 E41.91794
G1 X81.136 Y181.972 E41.97627
G1 X81.003 Y181.472 E42.02517
G1 X80.884 Y180.869 E42.08325
G1 X80.844 Y180.262 E42.14074
G1 X80.802 Y140.127 E45.9335
G1 X80.59 Y140.12 E45.95354
G1 X79.979 Y140.061 E46.01155
G1 X79.126 Y139.839 E46.09484
G1 X78.66 Y139.67 E46.14169
G1 X78.097 Y139.423 E46.19978
G1 X77.571 Y139.106 E46.25782
G1 X76.952 Y138.591 E46.33391
G1 X76.408 Y138.054 E46.40615
G1 X75.999 Y137.594 E46.46432
G1 X75.654 Y137.086 E46.52235
G1 X75.294 Y136.326 E46.60182
G1 X75.117 Y135.846 E46.65016
G1 X74.942 Y135.257 E46.70823
G1 X74.845 Y134.65 E46.76632
G1 X74.825 Y134.221 E46.8069
G1 X74.822 Y132.809 E46.94034
G1 X74.861 Y132.196 E46.99838
G1 X74.976 Y131.603 E47.05546
G1 X75.044 Y131.343 E47.08086
G1 X75.238 Y130.76 E47.13892
G1 X75.505 Y130.207 E47.19696
G1 X75.751 Y129.819 E47.24037
G1 X76.191 Y129.194 E47.3126
G1 X76.577 Y128.716 E47.37066
G1 X77.022 Y128.291 E47.42881
G1 X77.517 Y127.928 E47.48682
G1 X78.076 Y127.623 E47.547
G0 F2880 X78.223 Y127.941
G1 F900 X78.919 Y127.62 E47.61943
G1 X79.471 Y127.409 E47.67527
G1 X80.047 Y127.275 E47.73116
G1 X80.751 Y127.218 E47.7979
G1 X142.263 Y127.221 E53.61079
G1 X142.853 Y127.261 E53.66667
G1 X143.432 Y127.38 E53.72253
G1 X143.779 Y127.492 E53.75699
G1 X144.258 Y127.669 E53.80524
G1 X144.798 Y127.911 E53.86116
G1 X145.3 Y128.224 E53.91707
G1 X145.853 Y128.697 E53.98583
G1 X146.392 Y129.242 E54.05827
G1 X146.778 Y129.689 E54.11408
G1 X147.101 Y130.185 E54.17002
G1 X147.399 Y130.839 E54.23793
G1 X147.571 Y131.318 E54.28603
G1 X147.732 Y131.887 E54.34191
G1 X147.816 Y132.472 E54.39776
G1 X147.828 Y132.8 E54.42878
G1 X147.827 Y134.208 E54.56183
G1 X147.787 Y134.798 E54.61771
G1 X147.667 Y135.377 E54.67359
G1 X147.565 Y135.697 E54.70533
G1 X147.392 Y136.174 E54.75328
G1 X147.153 Y136.715 E54.80917
G1 X146.844 Y137.218 E54.86496
G1 X146.629 Y137.495 E54.8981
G1 X146.299 Y137.888 E54.94659
G1 X145.89 Y138.314 E55.0024
G1 X145.426 Y138.681 E55.0583
G1 X144.795 Y139.041 E55.12696
G1 X144.101 Y139.364 E55.19929
G1 X143.549 Y139.577 E55.25521
G1 X142.974 Y139.714 E55.31106
G1 X142.317 Y139.773 E55.3734
G1 X141.891 Y139.779 E55.41366
G1 X141.803 Y180.281 E59.24111
G1 X141.762 Y180.87 E59.29691
G1 X141.641 Y181.449 E59.3528
G1 X141.535 Y181.778 E59.38547
G1 X141.179 Y182.748 E59.48311
G1 X140.938 Y183.288 E59.53899
G1 X140.627 Y183.791 E59.59488
G1 X140.42 Y184.058 E59.6268
G1 X139.757 Y184.846 E59.72412
G1 X139.346 Y185.271 E59.77999
G1 X138.882 Y185.638 E59.8359
G1 X138.587 Y185.823 E59.8688
G1 X137.688 Y186.339 E59.96676
G1 X137.156 Y186.598 E60.02267
G1 X136.64 Y186.771 E60.0741
G1 X136.139 Y186.905 E60.12311
G1 X135.559 Y187.019 E60.17897
G1 X135.009 Y187.054 E60.23105
G1 X87.977 Y187.051 E64.67557
G1 X87.387 Y187.011 E64.73146
G1 X86.808 Y186.892 E64.78732
G1 X86.467 Y186.782 E64.82118
G1 X85.496 Y186.425 E64.91894
G1 X84.956 Y186.184 E64.97482
G1 X84.454 Y185.873 E65.03063
G1 X84.189 Y185.667 E65.06235
G1 X83.401 Y185.004 E65.15966
G1 X82.976 Y184.593 E65.21553
G1 X82.609 Y184.129 E65.27144
G1 X82.424 Y183.834 E65.30435
G1 X81.908 Y182.935 E65.4023
G1 X81.649 Y182.403 E65.45822
G1 X81.474 Y181.882 E65.51015
G1 X81.341 Y181.382 E65.55905
G1 X81.228 Y180.801 E65.61498
G1 X81.194 Y180.262 E65.66602
G1 X81.151 Y139.787 E69.49091
G1 X80.601 Y139.77 E69.54291
G1 X80.013 Y139.712 E69.59874
G1 X79.245 Y139.51 E69.67379
G1 X78.779 Y139.341 E69.72063
G1 X78.238 Y139.102 E69.77652
G1 X77.735 Y138.793 E69.83231
G1 X77.198 Y138.342 E69.89858
G1 X76.654 Y137.805 E69.97081
G1 X76.262 Y137.362 E70.02671
G1 X75.933 Y136.87 E70.08264
G1 X75.622 Y136.205 E70.15202
G1 X75.445 Y135.725 E70.20037
G1 X75.279 Y135.157 E70.25629
G1 X75.19 Y134.573 E70.31211
G1 X75.175 Y134.22 E70.3455
G1 X75.172 Y132.808 E70.47893
G1 X75.211 Y132.218 E70.53481
G1 X75.314 Y131.692 E70.58546
G1 X75.382 Y131.432 E70.61086
G1 X75.57 Y130.871 E70.66677
G1 X75.832 Y130.341 E70.72264
G1 X76.038 Y130.021 E70.75861
G1 X76.478 Y129.396 E70.83084
G1 X76.85 Y128.936 E70.88674
G1 X77.281 Y128.531 E70.94263
G1 X77.762 Y128.188 E70.99846
G1 X78.223 Y127.941 E71.04788
G0 F2880 X78.369 Y128.259
G1 F900 X79.065 Y127.938 E71.12031
G1 X79.596 Y127.737 E71.17397
G1 X80.149 Y127.613 E71.22752
G1 X80.751 Y127.568 E71.28457
G1 X142.263 Y127.571 E77.09746
G1 X142.829 Y127.611 E77.15108
G1 X143.383 Y127.73 E77.20462
G1 X143.658 Y127.821 E77.232
G1 X144.137 Y127.998 E77.28025
G1 X144.654 Y128.231 E77.33384
G1 X145.133 Y128.535 E77.38745
G1 X145.604 Y128.943 E77.44634
G1 X146.143 Y129.488 E77.51878
G1 X146.512 Y129.918 E77.57232
G1 X146.817 Y130.396 E77.62591
G1 X147.069 Y130.958 E77.68411
G1 X147.241 Y131.437 E77.73221
G1 X147.395 Y131.983 E77.78582
G1 X147.478 Y132.8 E77.86342
G1 X147.477 Y134.208 E77.99648
G1 X147.437 Y134.774 E78.0501
G1 X147.236 Y135.577 E78.12832
G1 X147.063 Y136.054 E78.17627
G1 X146.832 Y136.573 E78.22995
G1 X146.361 Y137.27 E78.30945
G1 X146.031 Y137.663 E78.35794
G1 X145.637 Y138.071 E78.41154
G1 X145.189 Y138.419 E78.46515
G1 X144.647 Y138.724 E78.52392
G1 X143.953 Y139.047 E78.59626
G1 X143.424 Y139.25 E78.64981
G1 X142.871 Y139.376 E78.7034
G1 X142.312 Y139.423 E78.75642
G1 X141.542 Y139.434 E78.82919
G1 X141.453 Y180.28 E82.68914
G1 X141.412 Y180.845 E82.74268
G1 X141.207 Y181.658 E82.82191
G1 X140.851 Y182.628 E82.91955
G1 X140.618 Y183.145 E82.97314
G1 X140.152 Y183.832 E83.05159
G1 X139.489 Y184.62 E83.14891
G1 X139.094 Y185.027 E83.20251
G1 X138.413 Y185.52 E83.28195
G1 X137.514 Y186.036 E83.37991
G1 X137.003 Y186.283 E83.43354
G1 X136.55 Y186.433 E83.47864
G1 X136.049 Y186.567 E83.52765
G1 X135.492 Y186.675 E83.58126
G1 X135.009 Y186.704 E83.62699
G1 X87.977 Y186.701 E88.07151
G1 X87.411 Y186.661 E88.12513
G1 X86.588 Y186.454 E88.20533
G1 X85.617 Y186.097 E88.30309
G1 X85.1 Y185.864 E88.35668
G1 X84.415 Y185.399 E88.43492
G1 X83.627 Y184.736 E88.53224
G1 X83.22 Y184.341 E88.58583
G1 X82.727 Y183.66 E88.66528
G1 X82.211 Y182.761 E88.76324
G1 X81.964 Y182.25 E88.81687
G1 X81.812 Y181.792 E88.86248
G1 X81.679 Y181.292 E88.91137
G1 X81.572 Y180.735 E88.96497
G1 X81.544 Y180.261 E89.00984
G1 X81.501 Y139.448 E92.86667
G1 X80.612 Y139.42 E92.95072
G1 X80.048 Y139.363 E93.00429
G1 X79.365 Y139.181 E93.07109
G1 X78.899 Y139.012 E93.11793
G1 X78.381 Y138.781 E93.17153
G1 X77.9 Y138.48 E93.22515
G1 X77.443 Y138.092 E93.2818
G1 X76.899 Y137.555 E93.35404
G1 X76.525 Y137.13 E93.40754
G1 X76.214 Y136.655 E93.46119
G1 X75.951 Y136.084 E93.5206
G1 X75.774 Y135.604 E93.56894
G1 X75.615 Y135.059 E93.62259
G1 X75.525 Y134.22 E93.70233
G1 X75.522 Y132.808 E93.83577
G1 X75.561 Y132.242 E93.88938
G1 X75.653 Y131.781 E93.9338
G1 X75.721 Y131.521 E93.9592
G1 X75.903 Y130.983 E94.01287
G1 X76.158 Y130.477 E94.06642
G1 X76.324 Y130.222 E94.09517
G1 X76.764 Y129.597 E94.1674
G1 X77.122 Y129.157 E94.22101
G1 X77.539 Y128.773 E94.27458
G1 X78.005 Y128.45 E94.32816
G1 X78.369 Y128.259 E94.367
G0 F2880 X78.516 Y128.577
G1 F900 X79.212 Y128.256 E94.43943
G1 X79.719 Y128.066 E94.4906
G1 X80.249 Y127.952 E94.54183
G1 X80.751 Y127.918 E94.58938
G1 X142.263 Y127.921 E100.40226
G1 X142.804 Y127.961 E100.45352
G1 X143.537 Y128.149 E100.52503
G1 X144.016 Y128.326 E100.57329
G1 X144.509 Y128.551 E100.6245
G1 X144.963 Y128.845 E100.67562
G1 X145.355 Y129.189 E100.7249
G1 X145.894 Y129.734 E100.79734
G1 X146.246 Y130.146 E100.84855
G1 X146.533 Y130.606 E100.89978
G1 X146.74 Y131.076 E100.94831
G1 X146.912 Y131.555 E100.99641
G1 X147.057 Y132.077 E101.04761
G1 X147.128 Y132.8 E101.11626
G1 X147.127 Y134.208 E101.24932
G1 X147.087 Y134.748 E101.30048
G1 X146.907 Y135.458 E101.3697
G1 X146.734 Y135.935 E101.41765
G1 X146.512 Y136.429 E101.46883
G1 X146.093 Y137.045 E101.53923
G1 X145.763 Y137.438 E101.58773
G1 X145.385 Y137.826 E101.63892
G1 X144.954 Y138.155 E101.69016
G1 X144.5 Y138.407 E101.73923
G1 X143.806 Y138.73 E101.81157
G1 X143.299 Y138.922 E101.8628
G1 X142.769 Y139.037 E101.91405
G1 X142.307 Y139.073 E101.95784
G1 X141.193 Y139.089 E102.06312
G1 X141.103 Y180.279 E105.95559
G1 X141.062 Y180.819 E106.00677
G1 X140.878 Y181.537 E106.07681
G1 X140.522 Y182.507 E106.17445
G1 X140.298 Y183.001 E106.22571
G1 X139.884 Y183.607 E106.29507
G1 X139.221 Y184.395 E106.39238
G1 X138.843 Y184.783 E106.44357
G1 X138.238 Y185.216 E106.51388
G1 X137.339 Y185.732 E106.61183
G1 X136.851 Y185.967 E106.66302
G1 X136.46 Y186.095 E106.7019
G1 X135.959 Y186.229 E106.75091
G1 X135.426 Y186.33 E106.80217
G1 X135.009 Y186.354 E106.84164
G1 X87.977 Y186.351 E111.28617
G1 X87.436 Y186.311 E111.33743
G1 X86.709 Y186.125 E111.40834
G1 X85.738 Y185.768 E111.50611
G1 X85.244 Y185.544 E111.55737
G1 X84.64 Y185.131 E111.62651
G1 X83.852 Y184.468 E111.72383
G1 X83.464 Y184.09 E111.77502
G1 X83.031 Y183.485 E111.84533
G1 X82.515 Y182.586 E111.94328
G1 X82.28 Y182.098 E111.99447
G1 X82.15 Y181.702 E112.03385
G1 X82.017 Y181.202 E112.08275
G1 X81.917 Y180.669 E112.13399
G1 X81.894 Y180.261 E112.17261
G1 X81.851 Y139.108 E116.06157
G1 X80.623 Y139.07 E116.17767
G1 X80.084 Y139.014 E116.22888
G1 X79.484 Y138.852 E116.28761
G1 X79.018 Y138.683 E116.33446
G1 X78.524 Y138.461 E116.38564
G1 X78.067 Y138.169 E116.43689
G1 X77.689 Y137.843 E116.48406
G1 X77.145 Y137.306 E116.55629
G1 X76.789 Y136.898 E116.60746
G1 X76.496 Y136.442 E116.65868
G1 X76.279 Y135.962 E116.70846
G1 X76.102 Y135.482 E116.75681
G1 X75.952 Y134.962 E116.80795
G1 X75.875 Y134.219 E116.87854
G1 X75.872 Y132.807 E117.01198
G1 X75.911 Y132.266 E117.06323
G1 X75.992 Y131.869 E117.10152
G1 X76.06 Y131.609 E117.12692
G1 X76.235 Y131.096 E117.17814
G1 X76.61 Y130.423 E117.25095
G1 X77.05 Y129.798 E117.32318
G1 X77.394 Y129.38 E117.37433
G1 X77.795 Y129.016 E117.42551
G1 X78.246 Y128.715 E117.47675
G1 X78.516 Y128.577 E117.50541
G0 F2880 X78.662 Y128.895
G1 F900 X79.358 Y128.574 E117.57784
G1 X79.842 Y128.395 E117.6266
G1 X80.347 Y128.293 E117.67529
G1 X80.751 Y128.268 E117.71354
G1 X142.263 Y128.271 E123.52642
G1 X142.777 Y128.311 E123.57514
G1 X143.415 Y128.477 E123.63744
G1 X143.894 Y128.654 E123.6857
G1 X144.363 Y128.87 E123.73449
G1 X144.792 Y129.155 E123.78317
G1 X145.106 Y129.435 E123.82292
G1 X145.645 Y129.98 E123.89536
G1 X145.978 Y130.373 E123.94404
G1 X146.246 Y130.813 E123.99272
G1 X146.41 Y131.194 E124.03192
G1 X146.582 Y131.673 E124.08002
G1 X146.718 Y132.17 E124.12871
G1 X146.778 Y132.799 E124.18842
G1 X146.777 Y134.207 E124.32148
G1 X146.737 Y134.721 E124.3702
G1 X146.578 Y135.339 E124.4305
G1 X146.405 Y135.816 E124.47845
G1 X146.192 Y136.285 E124.52712
G1 X145.825 Y136.82 E124.58843
G1 X145.495 Y137.213 E124.63693
G1 X145.134 Y137.581 E124.68564
G1 X144.721 Y137.889 E124.73433
G1 X144.352 Y138.089 E124.77399
G1 X143.658 Y138.412 E124.84633
G1 X143.175 Y138.593 E124.89508
G1 X142.671 Y138.697 E124.94371
G1 X142.302 Y138.723 E124.97866
G1 X140.843 Y138.744 E125.11655
