;FLAVOR:UltiGCode
;TIME:2794
;MATERIAL:6600
;MATERIAL2:0
;NOZZLE_DIAMETER:0.6
;Generated with Cura_SteamEngine 4.0.0
M82 ;absolute extrusion mode

G92 E0
G10
;LAYER_COUNT:66
;LAYER:0
M107
G0 F3927.3 X99.172 Y58.603 Z0.4
;TYPE:SKIRT
G11
G1 F1800 X99.59 Y57.909 E0.17175
G1 X100.074 Y57.259 E0.34356
G1 X100.601 Y56.679 E0.5097
G1 X100.756 Y56.524 E0.55617
G1 X101.357 Y55.98 E0.72802
G1 X102.008 Y55.498 E0.89975
G1 X102.704 Y55.082 E1.07165
G1 X103.437 Y54.737 E1.24339
G1 X104.201 Y54.466 E1.41525
G1 X104.987 Y54.271 E1.58693
G1 X105.789 Y54.155 E1.75873
G1 X106.565 Y54.118 E1.92343
G1 X144.685 Y54.118 E10.00487
G1 X145.494 Y54.158 E10.17658
G1 X146.296 Y54.278 E10.3485
G1 X147.082 Y54.475 E10.52029
G1 X147.844 Y54.75 E10.69203
G1 X148.576 Y55.098 E10.86386
G1 X149.27 Y55.517 E11.03572
G1 X149.92 Y56.002 E11.20765
G1 X150.494 Y56.524 E11.37213
G1 X150.649 Y56.679 E11.41861
G1 X151.193 Y57.28 E11.59046
G1 X151.675 Y57.931 E11.76218
G1 X152.091 Y58.627 E11.93408
G1 X152.436 Y59.36 E12.10583
G1 X152.707 Y60.124 E12.27769
G1 X152.902 Y60.91 E12.44937
G1 X153.018 Y61.712 E12.62116
G1 X153.054 Y62.607 E12.81106
G1 X153.018 Y65.094 E13.33836
G1 X152.966 Y65.903 E13.51022
G1 X152.835 Y66.702 E13.68187
G1 X152.626 Y67.485 E13.85368
G1 X152.341 Y68.244 E14.02555
G1 X151.982 Y68.971 E14.19745
G1 X151.553 Y69.658 E14.36915
G1 X150.865 Y70.52 E14.60297
G1 X150.65 Y70.755 E14.67049
G1 X150.074 Y71.325 E14.84229
G1 X149.445 Y71.836 E15.01409
G1 X148.768 Y72.282 E15.18596
G1 X148.051 Y72.66 E15.3578
G1 X147.3 Y72.965 E15.52964
G1 X146.523 Y73.194 E15.70137
G1 X145.727 Y73.346 E15.87317
G1 X144.65 Y73.425 E16.10211
G1 X142.551 Y73.441 E16.54711
G1 X131.215 Y112.829 E25.23631
G1 X130.952 Y113.596 E25.40821
G1 X130.616 Y114.333 E25.57993
G1 X130.104 Y115.19 E25.79157
G1 X129.57 Y115.972 E25.99232
G1 X129.081 Y116.618 E26.16408
G1 X128.269 Y117.456 E26.41146
G1 X127.912 Y117.776 E26.51309
G1 X127.283 Y118.287 E26.6849
G1 X126.27 Y118.921 E26.93825
G1 X125.425 Y119.368 E27.14091
G1 X124.691 Y119.711 E27.31267
G1 X123.927 Y119.98 E27.48439
G1 X122.937 Y120.209 E27.69981
G1 X122.003 Y120.365 E27.90056
G1 X121.198 Y120.459 E28.07238
G1 X120.65 Y120.477 E28.18862
G1 X97.752 Y120.478 E33.04299
G1 X96.943 Y120.438 E33.21471
G1 X96.141 Y120.319 E33.38659
G1 X95.355 Y120.121 E33.55843
G1 X94.775 Y119.92 E33.68857
G1 X92.27 Y118.946 E34.25836
G1 X89.99 Y118.2 E34.76693
G1 X87.648 Y117.579 E35.2806
G1 X85.298 Y117.101 E35.789
G1 X82.927 Y116.758 E36.29688
G1 X80.541 Y116.551 E36.80461
G1 X78.074 Y116.48 E37.32783
G1 X77.266 Y116.417 E37.49965
G1 X76.468 Y116.274 E37.67152
G1 X75.689 Y116.054 E37.84313
G1 X74.934 Y115.758 E38.01505
G1 X74.213 Y115.389 E38.18676
G1 X73.531 Y114.951 E38.35859
G1 X72.896 Y114.447 E38.53046
G1 X72.405 Y113.98 E38.67412
G1 X72.256 Y113.826 E38.71954
G1 X71.722 Y113.217 E38.89126
G1 X71.25 Y112.558 E39.0631
G1 X70.846 Y111.855 E39.23499
G1 X70.513 Y111.116 E39.40683
G1 X70.255 Y110.348 E39.57859
G1 X70.073 Y109.558 E39.75046
G1 X69.97 Y108.755 E39.92209
G1 X69.945 Y108.114 E40.05808
G1 X69.945 Y107.488 E40.1908
G1 X69.985 Y106.679 E40.36251
G1 X70.105 Y105.877 E40.53443
G1 X70.302 Y105.091 E40.70622
G1 X70.577 Y104.329 E40.87796
G1 X70.925 Y103.597 E41.04979
G1 X71.344 Y102.903 E41.22165
G1 X71.829 Y102.253 E41.39358
G1 X72.351 Y101.679 E41.55807
G1 X72.506 Y101.524 E41.60454
G1 X73.107 Y100.98 E41.77639
G1 X73.758 Y100.498 E41.94812
G1 X74.454 Y100.082 E42.12002
G1 X75.187 Y99.737 E42.29176
G1 X75.951 Y99.466 E42.46362
G1 X76.737 Y99.271 E42.6353
G1 X77.539 Y99.155 E42.8071
G1 X78.306 Y99.118 E42.96989
G1 X106.662 Y99.087 E48.98136
G1 X106.68 Y73.461 E54.41408
G1 X105.932 Y73.422 E54.57287
G1 X105.131 Y73.3 E54.74464
G1 X104.346 Y73.1 E54.91638
G1 X103.584 Y72.824 E55.08819
G1 X102.853 Y72.473 E55.2601
G1 X101.966 Y71.918 E55.48192
G1 X101.688 Y71.718 E55.55453
G1 X101.055 Y71.212 E55.72633
G1 X100.474 Y70.647 E55.89814
G1 X99.952 Y70.028 E56.0698
G1 X99.493 Y69.36 E56.24162
G1 X99.102 Y68.65 E56.41346
G1 X98.783 Y67.904 E56.58546
G1 X98.625 Y67.433 E56.69078
G1 X98.551 Y67.189 E56.74484
G1 X98.354 Y66.403 E56.91662
G1 X98.236 Y65.601 E57.08848
G1 X98.197 Y64.812 E57.25595
G1 X98.195 Y62.495 E57.74715
G1 X98.234 Y61.686 E57.91886
G1 X98.353 Y60.884 E58.09075
G1 X98.55 Y60.098 E58.26253
G1 X98.824 Y59.335 E58.4344
G1 X99.172 Y58.603 E58.60623
G0 F3927.3 X99.7 Y58.741
G1 F1800 X100.117 Y58.077 E58.77246
G1 X100.599 Y57.459 E58.93861
G1 X100.976 Y57.054 E59.05591
G1 X101.131 Y56.899 E59.10238
G1 X101.713 Y56.374 E59.26855
G1 X102.345 Y55.91 E59.43477
G1 X103.021 Y55.514 E59.60086
G1 X103.734 Y55.188 E59.76706
G1 X104.477 Y54.937 E59.93332
G1 X105.241 Y54.763 E60.09944
G1 X106.019 Y54.667 E60.26563
G1 X106.565 Y54.648 E60.38145
G1 X144.685 Y54.648 E68.46289
G1 X145.468 Y54.688 E68.6291
G1 X146.242 Y54.807 E68.79512
G1 X147.001 Y55.005 E68.96141
G1 X147.735 Y55.279 E69.12751
G1 X148.438 Y55.627 E69.2938
G1 X149.102 Y56.044 E69.46003
G1 X149.719 Y56.526 E69.62602
G1 X150.119 Y56.899 E69.74196
G1 X150.274 Y57.054 E69.78843
G1 X150.799 Y57.636 E69.9546
G1 X151.263 Y58.268 E70.12082
G1 X151.659 Y58.944 E70.28691
G1 X151.985 Y59.657 E70.45312
G1 X152.236 Y60.4 E70.61938
G1 X152.41 Y61.164 E70.78549
G1 X152.506 Y61.942 E70.95168
G1 X152.524 Y62.599 E71.09102
G1 X152.488 Y65.086 E71.61831
G1 X152.437 Y65.868 E71.78445
G1 X152.306 Y66.641 E71.95066
G1 X152.097 Y67.397 E72.11695
G1 X151.813 Y68.127 E72.28301
G1 X151.455 Y68.825 E72.44931
G1 X151.029 Y69.482 E72.61531
G1 X150.474 Y70.162 E72.80139
G1 X150.259 Y70.397 E72.86892
G1 X149.701 Y70.948 E73.03517
G1 X149.09 Y71.439 E73.20134
G1 X148.432 Y71.865 E73.36752
G1 X147.734 Y72.222 E73.53373
G1 X147.004 Y72.506 E73.69979
G1 X146.248 Y72.714 E73.86601
G1 X145.475 Y72.844 E74.03219
G1 X144.646 Y72.895 E74.20827
G1 X142.151 Y72.914 E74.73723
G1 X130.705 Y112.683 E83.5105
G1 X130.45 Y113.424 E83.67664
G1 X130.121 Y114.135 E83.84272
G1 X129.666 Y114.891 E84.02978
G1 X129.132 Y115.673 E84.23053
G1 X128.658 Y116.297 E84.39666
G1 X127.915 Y117.062 E84.62274
G1 X127.558 Y117.382 E84.72438
G1 X126.949 Y117.874 E84.89036
G1 X126.023 Y118.452 E85.12177
G1 X125.178 Y118.899 E85.32444
G1 X124.467 Y119.23 E85.4907
G1 X123.726 Y119.486 E85.6569
G1 X122.85 Y119.686 E85.84739
G1 X121.916 Y119.842 E86.04814
G1 X121.137 Y119.932 E86.21439
G1 X120.65 Y119.947 E86.31768
G1 X97.752 Y119.948 E91.17206
G1 X96.97 Y119.908 E91.33806
G1 X96.195 Y119.789 E91.50429
G1 X95.436 Y119.591 E91.67058
G1 X94.967 Y119.426 E91.77598
G1 X92.46 Y118.451 E92.34624
G1 X90.134 Y117.69 E92.86508
G1 X87.769 Y117.063 E93.38378
G1 X85.392 Y116.58 E93.898
G1 X82.979 Y116.23 E94.41491
G1 X80.568 Y116.021 E94.92796
G1 X78.089 Y115.95 E95.45372
G1 X77.308 Y115.888 E95.61982
G1 X76.537 Y115.746 E95.78602
G1 X75.785 Y115.527 E95.95206
G1 X75.058 Y115.232 E96.11839
G1 X74.366 Y114.864 E96.28455
G1 X73.715 Y114.428 E96.45066
G1 X73.111 Y113.928 E96.61689
G1 X72.786 Y113.612 E96.71299
G1 X72.637 Y113.458 E96.75841
G1 X72.121 Y112.867 E96.92474
G1 X71.669 Y112.227 E97.09085
G1 X71.283 Y111.545 E97.25698
G1 X70.97 Y110.827 E97.42303
G1 X70.731 Y110.08 E97.5893
G1 X70.569 Y109.313 E97.7555
G1 X70.486 Y108.534 E97.92158
G1 X70.475 Y108.114 E98.01065
G1 X70.475 Y107.488 E98.14336
G1 X70.515 Y106.705 E98.30957
G1 X70.634 Y105.931 E98.47559
G1 X70.832 Y105.172 E98.64188
G1 X71.106 Y104.438 E98.80798
G1 X71.454 Y103.735 E98.97428
G1 X71.871 Y103.071 E99.1405
G1 X72.353 Y102.454 E99.30649
G1 X72.726 Y102.054 E99.42244
G1 X72.881 Y101.899 E99.46891
G1 X73.463 Y101.374 E99.63507
G1 X74.095 Y100.91 E99.80129
G1 X74.771 Y100.514 E99.96738
G1 X75.484 Y100.188 E100.13359
G1 X76.227 Y99.937 E100.29985
G1 X76.991 Y99.763 E100.46596
G1 X77.769 Y99.667 E100.63215
G1 X78.307 Y99.648 E100.74628
G1 X107.192 Y99.617 E106.8699
G1 X107.21 Y72.935 E112.52649
G1 X106.743 Y72.934 E112.62549
G1 X105.96 Y72.892 E112.79173
G1 X105.186 Y72.77 E112.95784
G1 X104.428 Y72.57 E113.12404
G1 X103.694 Y72.294 E113.29028
G1 X102.993 Y71.945 E113.45629
G1 X102.276 Y71.487 E113.63666
G1 X101.998 Y71.287 E113.70926
G1 X101.386 Y70.798 E113.87534
G1 X100.827 Y70.248 E114.04159
G1 X100.327 Y69.645 E114.20766
G1 X99.891 Y68.993 E114.37394
G1 X99.523 Y68.301 E114.5401
G1 X99.132 Y67.279 E114.77208
G1 X99.058 Y67.035 E114.82613
G1 X98.869 Y66.275 E114.99216
G1 X98.758 Y65.499 E115.15834
G1 X98.727 Y64.812 E115.30414
G1 X98.725 Y62.495 E115.79534
G1 X98.764 Y61.712 E115.96154
G1 X98.883 Y60.937 E116.12777
G1 X99.08 Y60.178 E116.29401
G1 X99.354 Y59.444 E116.4601
G1 X99.7 Y58.741 E116.62621
G0 F3927.3 X100.229 Y58.884
G1 F1800 X100.644 Y58.252 E116.7865
G1 X101.351 Y57.429 E117.01652
G1 X101.506 Y57.274 E117.06299
G1 X102.068 Y56.768 E117.22331
G1 X102.681 Y56.324 E117.38377
G1 X103.336 Y55.948 E117.54388
G1 X104.028 Y55.643 E117.70421
G1 X104.749 Y55.412 E117.86471
G1 X105.49 Y55.259 E118.02512
G1 X106.565 Y55.178 E118.25366
G1 X144.685 Y55.178 E126.3351
G1 X145.44 Y55.218 E126.49539
G1 X146.187 Y55.337 E126.65575
G1 X146.917 Y55.535 E126.8161
G1 X147.622 Y55.809 E126.97645
G1 X148.294 Y56.155 E127.13669
G1 X148.926 Y56.571 E127.29709
G1 X149.744 Y57.274 E127.52575
G1 X149.899 Y57.429 E127.57222
G1 X150.405 Y57.991 E127.73254
G1 X150.849 Y58.604 E127.89301
G1 X151.225 Y59.259 E128.05312
G1 X151.53 Y59.951 E128.21344
G1 X151.761 Y60.672 E128.37395
G1 X151.914 Y61.413 E128.53435
G1 X151.988 Y62.165 E128.69455
G1 X151.994 Y62.592 E128.78508
G1 X151.958 Y65.079 E129.31238
G1 X151.907 Y65.833 E129.47259
G1 X151.777 Y66.578 E129.63292
G1 X151.569 Y67.305 E129.79323
G1 X151.285 Y68.006 E129.95357
G1 X150.929 Y68.673 E130.11386
G1 X150.504 Y69.299 E130.27426
G1 X150.083 Y69.805 E130.41381
G1 X149.868 Y70.04 E130.48134
G1 X149.329 Y70.57 E130.64159
G1 X148.736 Y71.04 E130.80201
G1 X148.098 Y71.446 E130.96233
G1 X147.42 Y71.781 E131.12265
G1 X146.711 Y72.043 E131.28289
G1 X145.977 Y72.229 E131.44342
G1 X145.229 Y72.336 E131.60361
G1 X144.642 Y72.365 E131.7282
G1 X141.751 Y72.387 E132.34111
G1 X130.196 Y112.536 E141.1982
G1 X129.949 Y113.251 E141.35857
G1 X129.627 Y113.935 E141.51884
G1 X129.229 Y114.592 E141.68169
G1 X128.695 Y115.374 E141.88244
G1 X128.236 Y115.975 E142.04276
G1 X127.562 Y116.667 E142.24755
G1 X127.205 Y116.987 E142.34919
G1 X126.616 Y117.461 E142.50947
G1 X125.775 Y117.984 E142.71942
G1 X124.93 Y118.431 E142.92209
G1 X124.243 Y118.748 E143.08249
G1 X123.527 Y118.992 E143.24285
G1 X122.763 Y119.163 E143.40883
G1 X121.829 Y119.319 E143.60958
G1 X121.077 Y119.404 E143.77002
G1 X120.65 Y119.417 E143.86058
G1 X97.752 Y119.418 E148.71496
G1 X96.997 Y119.378 E148.87524
G1 X96.25 Y119.259 E149.0356
G1 X95.52 Y119.061 E149.19596
G1 X95.159 Y118.932 E149.27723
G1 X92.633 Y117.95 E149.85178
G1 X90.278 Y117.179 E150.37712
G1 X87.894 Y116.547 E150.89998
G1 X85.484 Y116.057 E151.42136
G1 X83.05 Y115.704 E151.94276
G1 X80.593 Y115.491 E152.4656
G1 X78.105 Y115.42 E152.99327
G1 X77.351 Y115.359 E153.15364
G1 X76.608 Y115.218 E153.31397
G1 X75.884 Y114.999 E153.47433
G1 X75.187 Y114.706 E153.63461
G1 X74.525 Y114.34 E153.79498
G1 X73.905 Y113.907 E153.9553
G1 X73.167 Y113.243 E154.16576
G1 X73.018 Y113.089 E154.21119
G1 X72.521 Y112.519 E154.37151
G1 X72.088 Y111.899 E154.53184
G1 X71.722 Y111.237 E154.6922
G1 X71.429 Y110.54 E154.85249
G1 X71.21 Y109.816 E155.01285
G1 X71.07 Y109.073 E155.17313
G1 X71.005 Y108.114 E155.37691
G1 X71.005 Y107.488 E155.50962
G1 X71.045 Y106.733 E155.66991
G1 X71.164 Y105.986 E155.83027
G1 X71.362 Y105.256 E155.99062
G1 X71.636 Y104.551 E156.15097
G1 X71.982 Y103.879 E156.31121
G1 X72.398 Y103.247 E156.47161
G1 X73.101 Y102.429 E156.70027
G1 X73.256 Y102.274 E156.74674
G1 X73.818 Y101.768 E156.90706
G1 X74.431 Y101.324 E157.06753
G1 X75.086 Y100.948 E157.22764
G1 X75.778 Y100.643 E157.38796
G1 X76.499 Y100.412 E157.54847
G1 X77.24 Y100.259 E157.70887
G1 X78.307 Y100.178 E157.93573
G1 X107.721 Y100.146 E164.1715
G1 X107.74 Y72.407 E170.05217
G1 X106.744 Y72.404 E170.26332
G1 X105.989 Y72.362 E170.42363
G1 X105.243 Y72.24 E170.58388
G1 X104.513 Y72.041 E170.74429
G1 X103.809 Y71.765 E170.9046
G1 X103.138 Y71.417 E171.06484
G1 X102.586 Y71.057 E171.20455
G1 X102.308 Y70.857 E171.27716
G1 X101.718 Y70.384 E171.43747
G1 X101.181 Y69.85 E171.59802
G1 X100.704 Y69.264 E171.75821
G1 X100.292 Y68.63 E171.9185
G1 X99.948 Y67.956 E172.07892
G1 X99.639 Y67.126 E172.26668
G1 X99.565 Y66.882 E172.32074
G1 X99.384 Y66.147 E172.48121
G1 X99.282 Y65.398 E172.64147
G1 X99.257 Y64.811 E172.76602
G1 X99.255 Y62.494 E173.25723
G1 X99.294 Y61.739 E173.4175
G1 X99.413 Y60.992 E173.57786
G1 X99.61 Y60.262 E173.73816
G1 X99.883 Y59.556 E173.89863
G1 X100.229 Y58.884 E174.05887
G0 F3927.3 X100.412 Y59.674
G1 F1800 X100.757 Y59.033 E174.21319
G1 X101.17 Y58.434 E174.36744
G1 X101.725 Y57.803 E174.54559
G1 X101.88 Y57.648 E174.59206
G1 X102.422 Y57.163 E174.74626
G1 X103.015 Y56.74 E174.90068
G1 X103.649 Y56.384 E175.05483
G1 X104.32 Y56.1 E175.20929
G1 X105.017 Y55.891 E175.36356
G1 X105.733 Y55.761 E175.51783
G1 X106.565 Y55.708 E175.69457
G1 X144.685 Y55.708 E183.77601
G1 X145.412 Y55.748 E183.93037
G1 X146.13 Y55.867 E184.08466
G1 X146.83 Y56.065 E184.23889
G1 X147.505 Y56.338 E184.39325
G1 X148.145 Y56.683 E184.54738
G1 X148.744 Y57.097 E184.70175
G1 X149.37 Y57.648 E184.87855
G1 X149.525 Y57.803 E184.92502
G1 X150.01 Y58.345 E185.07921
G1 X150.433 Y58.938 E185.23363
G1 X150.789 Y59.572 E185.38778
G1 X151.073 Y60.243 E185.54225
G1 X151.282 Y60.94 E185.69651
G1 X151.412 Y61.656 E185.85079
G1 X151.464 Y62.584 E186.04783
G1 X151.428 Y65.071 E186.57513
G1 X151.378 Y65.797 E186.72941
G1 X151.248 Y66.513 E186.88368
G1 X151.04 Y67.21 E187.03789
G1 X150.758 Y67.881 E187.19219
G1 X150.403 Y68.516 E187.34642
G1 X149.981 Y69.109 E187.50072
G1 X149.692 Y69.447 E187.595
G1 X149.477 Y69.682 E187.66252
G1 X148.957 Y70.191 E187.81678
G1 X148.384 Y70.64 E187.97111
G1 X147.766 Y71.024 E188.12536
G1 X147.109 Y71.337 E188.27964
G1 X146.422 Y71.576 E188.43385
G1 X145.712 Y71.739 E188.58828
G1 X144.638 Y71.835 E188.81688
G1 X141.352 Y71.859 E189.51353
G1 X129.687 Y112.389 E198.45469
G1 X129.447 Y113.077 E198.60916
G1 X129.134 Y113.733 E198.76325
G1 X128.791 Y114.293 E198.90247
G1 X128.257 Y115.075 E199.10322
G1 X127.814 Y115.653 E199.25761
G1 X127.208 Y116.272 E199.44126
G1 X126.851 Y116.592 E199.54289
G1 X126.283 Y117.047 E199.69718
G1 X125.527 Y117.515 E199.88568
G1 X124.682 Y117.962 E200.08834
G1 X124.021 Y118.267 E200.24267
G1 X123.33 Y118.497 E200.39706
G1 X122.675 Y118.64 E200.53919
G1 X121.741 Y118.796 E200.73994
G1 X121.018 Y118.877 E200.89418
G1 X120.65 Y118.887 E200.97222
G1 X97.752 Y118.888 E205.8266
G1 X97.026 Y118.848 E205.98075
G1 X96.308 Y118.729 E206.13504
G1 X95.351 Y118.438 E206.34709
G1 X92.806 Y117.448 E206.92602
G1 X90.442 Y116.675 E207.4533
G1 X88.011 Y116.031 E207.98645
G1 X85.581 Y115.536 E208.51219
G1 X83.099 Y115.177 E209.04385
G1 X80.619 Y114.961 E209.5716
G1 X78.12 Y114.89 E210.1016
G1 X77.395 Y114.83 E210.25583
G1 X76.68 Y114.69 E210.41028
G1 X75.986 Y114.472 E210.5645
G1 X75.319 Y114.18 E210.71886
G1 X74.689 Y113.817 E210.873
G1 X74.102 Y113.386 E211.02739
G1 X73.548 Y112.875 E211.18717
G1 X73.399 Y112.721 E211.2326
G1 X72.922 Y112.171 E211.38694
G1 X72.509 Y111.572 E211.54119
G1 X72.164 Y110.931 E211.69551
G1 X71.891 Y110.256 E211.84987
G1 X71.694 Y109.556 E212.00404
G1 X71.575 Y108.838 E212.15833
G1 X71.535 Y108.114 E212.31205
G1 X71.535 Y107.488 E212.44477
G1 X71.575 Y106.761 E212.59912
G1 X71.694 Y106.043 E212.75342
G1 X71.892 Y105.343 E212.90764
G1 X72.165 Y104.668 E213.062
G1 X72.51 Y104.028 E213.21614
G1 X72.924 Y103.429 E213.3705
G1 X73.475 Y102.803 E213.5473
G1 X73.63 Y102.648 E213.59377
G1 X74.172 Y102.163 E213.74796
G1 X74.765 Y101.74 E213.90239
G1 X75.399 Y101.384 E214.05653
G1 X76.07 Y101.1 E214.211
G1 X76.767 Y100.891 E214.36527
G1 X77.483 Y100.761 E214.51954
G1 X78.308 Y100.708 E214.6948
G1 X108.251 Y100.675 E221.04272
G1 X108.271 Y71.878 E227.14769
G1 X106.746 Y71.874 E227.47099
G1 X106.019 Y71.832 E227.62537
G1 X105.302 Y71.711 E227.77952
G1 X104.602 Y71.511 E227.93386
G1 X103.928 Y71.236 E228.08818
G1 X103.289 Y70.889 E228.24234
