;FLAVOR:UltiGCode
;TIME:5628
;MATERIAL:13199
;MATERIAL2:0
;NOZZLE_DIAMETER:0.6
;Generated with Cura_SteamEngine 4.0.0
M82 ;absolute extrusion mode

G92 E0
G10
;LAYER_COUNT:66
;LAYER:0
M107
G0 F3927.3 X70.07 Y69.325 Z0.4
;TYPE:SKIRT
G11
G1 F1800 X70.422 Y69.011 E0.1
G1 X71.053 Y68.502 E0.27187
G1 X72.043 Y67.883 E0.5194
G1 X72.89 Y67.434 E0.72263
G1 X73.624 Y67.09 E0.89448
G1 X74.388 Y66.82 E1.06627
G1 X75.385 Y66.589 E1.28323
G1 X76.319 Y66.433 E1.48398
G1 X77.124 Y66.339 E1.6558
G1 X77.672 Y66.321 E1.77204
G1 X100.57 Y66.32 E6.62641
G1 X101.379 Y66.36 E6.79813
G1 X102.181 Y66.479 E6.97002
G1 X102.967 Y66.677 E7.14186
G1 X103.544 Y66.877 E7.27132
G1 X106.045 Y67.848 E7.84009
G1 X108.343 Y68.602 E8.35282
G1 X110.669 Y69.218 E8.86293
G1 X113.011 Y69.694 E9.36959
G1 X115.406 Y70.04 E9.8826
G1 X117.781 Y70.246 E10.38799
G1 X120.251 Y70.318 E10.91185
G1 X121.059 Y70.382 E11.08368
G1 X121.856 Y70.525 E11.25535
G1 X122.636 Y70.745 E11.42716
G1 X123.391 Y71.041 E11.59908
G1 X124.112 Y71.411 E11.77088
G1 X124.794 Y71.849 E11.94272
G1 X125.429 Y72.353 E12.11458
G1 X125.917 Y72.818 E12.25749
G1 X126.066 Y72.972 E12.30292
G1 X126.6 Y73.581 E12.47463
G1 X127.072 Y74.24 E12.64647
G1 X127.476 Y74.943 E12.81837
G1 X127.809 Y75.682 E12.99021
G1 X128.067 Y76.45 E13.16196
G1 X128.249 Y77.24 E13.33383
G1 X128.352 Y78.043 E13.50546
G1 X128.377 Y78.684 E13.64146
G1 X128.377 Y79.31 E13.77417
G1 X128.337 Y80.119 E13.94589
G1 X128.217 Y80.921 E14.1178
G1 X128.02 Y81.707 E14.28959
G1 X127.745 Y82.469 E14.46133
G1 X127.397 Y83.201 E14.63316
G1 X126.978 Y83.895 E14.80502
G1 X126.493 Y84.545 E14.97696
G1 X125.971 Y85.119 E15.14144
G1 X125.816 Y85.274 E15.18791
G1 X125.215 Y85.818 E15.35976
G1 X124.564 Y86.3 E15.53149
G1 X123.868 Y86.716 E15.70339
G1 X123.135 Y87.061 E15.87514
G1 X122.371 Y87.332 E16.04699
G1 X121.585 Y87.527 E16.21867
G1 X120.783 Y87.643 E16.39047
G1 X120.016 Y87.68 E16.55326
G1 X91.66 Y87.711 E22.56474
G1 X91.642 Y113.337 E27.99745
G1 X92.392 Y113.376 E28.15666
G1 X93.193 Y113.498 E28.32843
G1 X93.978 Y113.698 E28.50017
G1 X94.74 Y113.975 E28.67206
G1 X95.531 Y114.358 E28.85837
G1 X95.741 Y114.474 E28.90923
G1 X96.43 Y114.901 E29.08108
G1 X97.074 Y115.393 E29.25289
G1 X97.666 Y115.946 E29.42463
G1 X98.201 Y116.555 E29.59648
G1 X98.673 Y117.214 E29.76833
G1 X99.084 Y117.926 E29.94262
G1 X99.222 Y118.196 E30.0069
G1 X99.555 Y118.935 E30.17874
G1 X99.813 Y119.703 E30.3505
G1 X99.994 Y120.493 E30.52232
G1 X100.097 Y121.297 E30.69416
G1 X100.122 Y121.918 E30.82592
G1 X100.127 Y124.292 E31.32921
G1 X100.089 Y125.101 E31.5009
G1 X99.971 Y125.903 E31.67276
G1 X99.775 Y126.689 E31.84449
G1 X99.502 Y127.452 E32.01629
G1 X99.155 Y128.185 E32.18822
G1 X98.738 Y128.88 E32.36005
G1 X98.254 Y129.53 E32.53185
G1 X97.74 Y130.099 E32.69441
G1 X97.585 Y130.255 E32.74103
G1 X96.986 Y130.801 E32.91286
G1 X96.336 Y131.286 E33.08479
G1 X95.642 Y131.704 E33.25654
G1 X94.909 Y132.051 E33.42847
G1 X94.147 Y132.325 E33.60014
G1 X93.361 Y132.522 E33.77193
G1 X92.559 Y132.641 E33.94381
G1 X91.757 Y132.68 E34.11404
G1 X53.637 Y132.68 E42.19548
G1 X52.828 Y132.64 E42.3672
G1 X52.026 Y132.52 E42.53911
G1 X51.24 Y132.323 E42.7109
G1 X50.478 Y132.048 E42.88264
G1 X49.746 Y131.7 E43.05447
G1 X49.052 Y131.281 E43.22633
G1 X48.402 Y130.796 E43.39827
G1 X47.809 Y130.255 E43.56844
G1 X47.654 Y130.099 E43.61506
G1 X47.112 Y129.497 E43.78679
G1 X46.632 Y128.844 E43.9586
G1 X46.219 Y128.147 E44.13036
G1 X45.876 Y127.413 E44.30212
G1 X45.607 Y126.648 E44.47403
G1 X45.415 Y125.861 E44.64577
G1 X45.301 Y125.058 E44.81771
G1 X45.267 Y124.265 E44.98598
G1 X45.28 Y121.849 E45.49818
G1 X45.324 Y121.04 E45.66994
G1 X45.448 Y120.239 E45.84178
G1 X45.65 Y119.454 E46.01362
G1 X45.929 Y118.693 E46.18545
G1 X46.281 Y117.963 E46.35727
G1 X46.679 Y117.307 E46.51993
G1 X46.862 Y117.035 E46.58943
G1 X47.347 Y116.386 E46.76119
G1 X47.894 Y115.788 E46.93301
G1 X48.497 Y115.246 E47.10489
G1 X49.15 Y114.767 E47.27658
G1 X49.847 Y114.354 E47.44834
G1 X50.486 Y114.051 E47.59826
G1 X50.671 Y113.973 E47.64083
G1 X51.433 Y113.696 E47.81271
G1 X52.218 Y113.494 E47.98456
G1 X53.019 Y113.371 E48.15636
G1 X53.848 Y113.328 E48.33234
G1 X55.78 Y113.325 E48.74193
G1 X67.107 Y73.97 E57.42388
G1 X67.37 Y73.203 E57.59578
G1 X67.706 Y72.466 E57.7675
G1 X68.216 Y71.612 E57.97837
G1 X68.753 Y70.825 E58.18035
G1 X69.242 Y70.179 E58.35212
G1 X70.07 Y69.325 E58.60429
G0 F3927.3 X70.423 Y69.72
G1 F1800 X70.775 Y69.406 E58.70429
G1 X71.386 Y68.915 E58.87046
G1 X72.292 Y68.351 E59.09671
G1 X73.139 Y67.902 E59.29995
G1 X73.849 Y67.571 E59.46602
G1 X74.589 Y67.313 E59.63216
G1 X75.472 Y67.112 E59.82415
G1 X76.406 Y66.956 E60.0249
G1 X77.185 Y66.866 E60.19114
G1 X77.672 Y66.851 E60.29444
G1 X100.57 Y66.85 E65.14881
G1 X101.352 Y66.89 E65.31481
G1 X102.127 Y67.009 E65.48104
G1 X102.886 Y67.207 E65.64733
G1 X103.353 Y67.371 E65.75226
G1 X105.862 Y68.346 E66.32292
G1 X108.199 Y69.112 E66.8443
G1 X110.548 Y69.734 E67.35945
G1 X112.933 Y70.219 E67.87542
G1 X115.337 Y70.566 E68.39035
G1 X117.755 Y70.776 E68.9049
G1 X120.235 Y70.848 E69.43088
G1 X121.017 Y70.911 E69.5972
G1 X121.788 Y71.053 E69.7634
G1 X122.54 Y71.272 E69.92945
G1 X123.266 Y71.568 E70.09566
G1 X123.958 Y71.935 E70.26172
G1 X124.61 Y72.371 E70.428
G1 X125.213 Y72.872 E70.5942
G1 X125.536 Y73.186 E70.6897
G1 X125.685 Y73.34 E70.73513
G1 X126.201 Y73.931 E70.90146
G1 X126.653 Y74.571 E71.06756
G1 X127.039 Y75.253 E71.2337
G1 X127.352 Y75.971 E71.39975
G1 X127.591 Y76.718 E71.56602
G1 X127.753 Y77.485 E71.73221
G1 X127.836 Y78.264 E71.89829
G1 X127.847 Y78.684 E71.98737
G1 X127.847 Y79.31 E72.12008
G1 X127.807 Y80.093 E72.28629
G1 X127.688 Y80.867 E72.45231
G1 X127.49 Y81.626 E72.6186
G1 X127.216 Y82.36 E72.7847
G1 X126.868 Y83.063 E72.95099
G1 X126.451 Y83.727 E73.11722
G1 X125.969 Y84.344 E73.2832
G1 X125.596 Y84.744 E73.39915
G1 X125.441 Y84.899 E73.44562
G1 X124.859 Y85.424 E73.61179
G1 X124.227 Y85.888 E73.77801
G1 X123.551 Y86.284 E73.9441
G1 X122.838 Y86.61 E74.1103
G1 X122.095 Y86.861 E74.27656
G1 X121.331 Y87.035 E74.44268
G1 X120.553 Y87.131 E74.60887
G1 X120.015 Y87.15 E74.72299
G1 X91.13 Y87.181 E80.84662
G1 X91.111 Y113.863 E86.5032
G1 X91.581 Y113.864 E86.60284
G1 X92.364 Y113.906 E86.76908
G1 X93.138 Y114.028 E86.93519
G1 X93.896 Y114.228 E87.10139
G1 X94.629 Y114.504 E87.26743
G1 X95.275 Y114.822 E87.42008
G1 X95.485 Y114.938 E87.47094
G1 X96.151 Y115.352 E87.63719
G1 X96.771 Y115.831 E87.80329
G1 X97.339 Y116.371 E87.96944
G1 X97.85 Y116.966 E88.13571
G1 X98.297 Y117.609 E88.30173
G1 X98.612 Y118.167 E88.43757
G1 X98.75 Y118.437 E88.50186
G1 X99.071 Y119.153 E88.66821
G1 X99.317 Y119.897 E88.83433
G1 X99.486 Y120.662 E89.00042
G1 X99.576 Y121.441 E89.16667
G1 X99.592 Y121.919 E89.26806
G1 X99.597 Y124.293 E89.77135
G1 X99.559 Y125.076 E89.93754
G1 X99.441 Y125.851 E90.10373
G1 X99.245 Y126.61 E90.26992
G1 X98.972 Y127.344 E90.43594
G1 X98.626 Y128.048 E90.60224
G1 X98.21 Y128.712 E90.76836
G1 X97.729 Y129.331 E90.93455
G1 X97.364 Y129.726 E91.04856
G1 X97.209 Y129.882 E91.09519
G1 X96.628 Y130.409 E91.26148
G1 X95.998 Y130.874 E91.42748
G1 X95.323 Y131.273 E91.59371
G1 X94.611 Y131.6 E91.75981
G1 X93.869 Y131.854 E91.92608
G1 X93.105 Y132.031 E92.09234
G1 X92.328 Y132.129 E92.25836
G1 X91.757 Y132.15 E92.3795
G1 X53.637 Y132.15 E100.46094
G1 X52.854 Y132.11 E100.62715
G1 X52.08 Y131.991 E100.79317
G1 X51.321 Y131.793 E100.95946
G1 X50.587 Y131.519 E101.12556
G1 X49.884 Y131.171 E101.29185
G1 X49.22 Y130.754 E101.45808
G1 X48.603 Y130.272 E101.62406
G1 X48.185 Y129.882 E101.74526
G1 X48.03 Y129.726 E101.79188
G1 X47.507 Y129.142 E101.95808
G1 X47.046 Y128.508 E102.12427
G1 X46.652 Y127.831 E102.29033
G1 X46.328 Y127.117 E102.45655
G1 X46.08 Y126.374 E102.62261
G1 X45.908 Y125.609 E102.78884
G1 X45.815 Y124.83 E102.95516
G1 X45.797 Y124.268 E103.07436
G1 X45.81 Y121.852 E103.58656
G1 X45.854 Y121.069 E103.75282
G1 X45.978 Y120.295 E103.919
G1 X46.18 Y119.538 E104.0851
G1 X46.458 Y118.805 E104.2513
G1 X46.809 Y118.104 E104.4175
G1 X47.119 Y117.603 E104.5424
G1 X47.302 Y117.331 E104.6119
G1 X47.772 Y116.704 E104.77802
G1 X48.304 Y116.128 E104.94425
G1 X48.891 Y115.609 E105.11036
G1 X49.528 Y115.153 E105.27644
G1 X50.209 Y114.764 E105.4427
G1 X50.692 Y114.54 E105.55558
G1 X50.877 Y114.462 E105.59814
G1 X51.614 Y114.194 E105.76439
G1 X52.374 Y114.004 E105.93047
G1 X53.15 Y113.891 E106.09672
G1 X53.849 Y113.858 E106.24507
G1 X56.18 Y113.854 E106.73924
G1 X67.617 Y74.116 E115.50568
G1 X67.872 Y73.375 E115.67181
G1 X68.201 Y72.664 E115.8379
G1 X68.654 Y71.911 E116.0242
G1 X69.191 Y71.124 E116.22618
G1 X69.665 Y70.499 E116.39247
G1 X70.423 Y69.72 E116.6229
G0 F3927.3 X70.776 Y70.116
G1 F1800 X71.128 Y69.802 E116.7229
G1 X71.718 Y69.329 E116.88322
G1 X72.54 Y68.819 E117.0883
G1 X73.387 Y68.37 E117.29153
G1 X74.073 Y68.052 E117.45183
G1 X74.789 Y67.808 E117.61219
G1 X75.559 Y67.635 E117.7795
G1 X76.493 Y67.479 E117.98025
G1 X77.245 Y67.394 E118.14069
G1 X77.672 Y67.381 E118.23126
G1 X100.57 Y67.38 E123.08563
G1 X101.325 Y67.42 E123.24592
G1 X102.072 Y67.539 E123.40628
G1 X102.802 Y67.737 E123.56663
G1 X103.161 Y67.865 E123.64743
G1 X105.689 Y68.847 E124.22238
G1 X108.039 Y69.617 E124.74664
G1 X110.44 Y70.253 E125.27321
G1 X112.842 Y70.742 E125.79288
G1 X115.266 Y71.092 E126.3121
G1 X117.729 Y71.306 E126.83622
G1 X120.22 Y71.378 E127.36453
G1 X120.974 Y71.44 E127.52492
G1 X121.717 Y71.581 E127.68525
G1 X122.441 Y71.8 E127.8456
G1 X123.138 Y72.093 E128.00589
G1 X123.8 Y72.459 E128.16626
G1 X124.419 Y72.893 E128.32653
G1 X125.155 Y73.555 E128.53639
G1 X125.304 Y73.709 E128.58182
G1 X125.801 Y74.279 E128.74214
G1 X126.234 Y74.899 E128.90246
G1 X126.6 Y75.561 E129.06283
G1 X126.893 Y76.258 E129.22312
G1 X127.112 Y76.982 E129.38347
G1 X127.252 Y77.725 E129.54376
G1 X127.317 Y78.684 E129.74754
G1 X127.317 Y79.31 E129.88025
G1 X127.277 Y80.065 E130.04053
G1 X127.158 Y80.812 E130.20089
G1 X126.96 Y81.542 E130.36124
G1 X126.686 Y82.247 E130.5216
G1 X126.34 Y82.919 E130.68183
G1 X125.924 Y83.551 E130.84224
G1 X125.221 Y84.369 E131.0709
G1 X125.066 Y84.524 E131.11737
G1 X124.504 Y85.03 E131.27769
G1 X123.891 Y85.474 E131.43815
G1 X123.236 Y85.85 E131.59827
G1 X122.544 Y86.155 E131.75859
G1 X121.823 Y86.386 E131.91909
G1 X121.082 Y86.539 E132.0795
G1 X120.015 Y86.62 E132.30635
G1 X90.601 Y86.652 E138.54212
G1 X90.581 Y114.391 E144.42279
G1 X91.579 Y114.394 E144.63437
G1 X92.335 Y114.436 E144.79489
G1 X93.081 Y114.558 E144.95514
G1 X93.81 Y114.757 E145.11535
G1 X94.515 Y115.033 E145.27585
G1 X95.019 Y115.286 E145.39541
G1 X95.229 Y115.402 E145.44627
G1 X95.87 Y115.802 E145.60645
G1 X96.466 Y116.268 E145.76684
G1 X97.01 Y116.794 E145.92726
G1 X97.495 Y117.374 E146.08754
G1 X97.916 Y118.003 E146.248
G1 X98.14 Y118.409 E146.34631
G1 X98.278 Y118.679 E146.41059
G1 X98.586 Y119.369 E146.57078
G1 X98.82 Y120.089 E146.73128
G1 X98.976 Y120.829 E146.89161
G1 X99.062 Y121.92 E147.12362
G1 X99.067 Y124.294 E147.62691
G1 X99.029 Y125.049 E147.78717
G1 X98.911 Y125.796 E147.9475
G1 X98.715 Y126.527 E148.10794
G1 X98.443 Y127.232 E148.26814
G1 X98.097 Y127.905 E148.42857
G1 X97.683 Y128.538 E148.58892
G1 X96.988 Y129.352 E148.81583
G1 X96.833 Y129.508 E148.86245
G1 X96.272 Y130.016 E149.0229
G1 X95.661 Y130.461 E149.18314
G1 X95.006 Y130.84 E149.34357
G1 X94.315 Y131.147 E149.50387
G1 X93.595 Y131.38 E149.66431
G1 X92.855 Y131.535 E149.82459
G1 X91.757 Y131.62 E150.05806
G1 X53.637 Y131.62 E158.1395
G1 X52.882 Y131.58 E158.29979
G1 X52.135 Y131.461 E158.46015
G1 X51.405 Y131.263 E158.6205
G1 X50.7 Y130.989 E158.78085
G1 X50.028 Y130.643 E158.94109
G1 X49.396 Y130.227 E159.10149
G1 X48.561 Y129.508 E159.3351
G1 X48.406 Y129.352 E159.38172
G1 X47.902 Y128.788 E159.54207
G1 X47.461 Y128.174 E159.70234
G1 X47.086 Y127.517 E159.86271
G1 X46.784 Y126.824 E160.02297
G1 X46.556 Y126.103 E160.18328
G1 X46.405 Y125.362 E160.3436
G1 X46.327 Y124.271 E160.57549
G1 X46.34 Y121.855 E161.08769
G1 X46.384 Y121.099 E161.24823
G1 X46.508 Y120.353 E161.40855
G1 X46.709 Y119.624 E161.56887
G1 X46.987 Y118.921 E161.72913
G1 X47.337 Y118.25 E161.88957
G1 X47.559 Y117.899 E161.97762
G1 X47.742 Y117.627 E162.04712
G1 X48.196 Y117.023 E162.20731
G1 X48.712 Y116.47 E162.36765
G1 X49.284 Y115.974 E162.52816
G1 X49.904 Y115.542 E162.68836
G1 X50.898 Y115.028 E162.92559
G1 X51.083 Y114.95 E162.96816
G1 X51.795 Y114.693 E163.12863
G1 X52.529 Y114.513 E163.28885
G1 X53.279 Y114.412 E163.44929
G1 X53.85 Y114.388 E163.57045
G1 X56.579 Y114.383 E164.14899
G1 X68.126 Y74.263 E172.9997
G1 X68.373 Y73.548 E173.16007
G1 X68.695 Y72.864 E173.32034
G1 X69.092 Y72.209 E173.48272
G1 X69.629 Y71.422 E173.6847
G1 X70.087 Y70.821 E173.8449
G1 X70.776 Y70.116 E174.05388
G0 F3927.3 X71.129 Y70.511
G1 F1800 X71.481 Y70.197 E174.15388
G1 X72.05 Y69.743 E174.3082
G1 X72.788 Y69.288 E174.492
G1 X73.635 Y68.839 E174.69524
G1 X74.296 Y68.534 E174.84957
G1 X74.986 Y68.303 E175.00383
G1 X75.647 Y68.158 E175.14729
G1 X76.581 Y68.002 E175.34804
G1 X77.304 Y67.921 E175.50228
G1 X77.672 Y67.911 E175.58032
G1 X100.57 Y67.91 E180.4347
G1 X101.296 Y67.95 E180.58884
G1 X102.014 Y68.069 E180.74313
G1 X102.969 Y68.36 E180.95478
G1 X105.499 Y69.343 E181.53021
G1 X107.891 Y70.127 E182.06385
G1 X110.306 Y70.766 E182.59345
G1 X112.747 Y71.263 E183.12156
G1 X115.214 Y71.62 E183.65001
G1 X117.702 Y71.836 E184.17945
G1 X120.205 Y71.908 E184.71031
G1 X120.93 Y71.969 E184.86455
G1 X121.644 Y72.109 E185.0188
G1 X122.338 Y72.327 E185.17302
G1 X123.005 Y72.619 E185.32738
G1 X123.635 Y72.983 E185.48163
G1 X124.222 Y73.414 E185.63602
G1 X124.774 Y73.923 E185.7952
G1 X124.923 Y74.077 E185.84063
G1 X125.4 Y74.627 E185.99497
G1 X125.813 Y75.226 E186.14922
G1 X126.158 Y75.867 E186.30354
G1 X126.431 Y76.542 E186.4579
G1 X126.628 Y77.242 E186.61207
G1 X126.747 Y77.96 E186.76636
G1 X126.787 Y78.684 E186.92008
G1 X126.787 Y79.31 E187.05279
G1 X126.747 Y80.037 E187.20715
G1 X126.628 Y80.755 E187.36144
G1 X126.43 Y81.455 E187.51566
G1 X126.157 Y82.13 E187.67002
G1 X125.812 Y82.77 E187.82416
G1 X125.398 Y83.369 E187.97853
G1 X124.847 Y83.995 E188.15533
G1 X124.692 Y84.15 E188.2018
G1 X124.15 Y84.635 E188.35599
G1 X123.557 Y85.058 E188.51041
G1 X122.923 Y85.414 E188.66456
G1 X122.252 Y85.698 E188.81903
G1 X121.555 Y85.907 E188.97329
G1 X120.839 Y86.037 E189.12757
G1 X120.014 Y86.09 E189.30283
G1 X90.071 Y86.123 E195.65075
G1 X90.05 Y114.92 E201.75571
G1 X91.578 Y114.924 E202.07965
G1 X92.304 Y114.966 E202.23382
G1 X93.022 Y115.088 E202.38822
G1 X93.722 Y115.287 E202.5425
G1 X94.396 Y115.562 E202.69682
G1 X94.762 Y115.75 E202.78405
G1 X94.972 Y115.866 E202.83491
G1 X95.589 Y116.252 E202.9892
G1 X96.16 Y116.704 E203.14359
G1 X96.677 Y117.215 E203.2977
G1 X97.136 Y117.781 E203.45219
G1 X97.668 Y118.65 E203.6682
G1 X97.806 Y118.92 E203.73248
G1 X98.101 Y119.585 E203.88671
G1 X98.322 Y120.279 E204.04112
G1 X98.465 Y120.992 E204.19528
G1 X98.532 Y121.921 E204.39274
G1 X98.537 Y124.295 E204.89603
G1 X98.499 Y125.022 E205.05037
G1 X98.381 Y125.74 E205.20463
G1 X98.185 Y126.441 E205.35894
G1 X97.913 Y127.116 E205.51322
G1 X97.569 Y127.757 E205.66744
G1 X97.157 Y128.357 E205.82174
G1 X96.612 Y128.978 E205.99691
G1 X96.457 Y129.134 E206.04353
G1 X95.916 Y129.622 E206.19799
G1 X95.325 Y130.047 E206.35231
G1 X94.692 Y130.405 E206.50648
G1 X94.023 Y130.691 E206.66073
G1 X93.326 Y130.902 E206.81511
G1 X92.611 Y131.035 E206.96929
G1 X91.757 Y131.09 E207.15072
G1 X53.637 Y131.09 E215.23216
G1 X52.91 Y131.05 E215.38651
G1 X52.192 Y130.931 E215.5408
G1 X51.492 Y130.733 E215.69503
G1 X50.817 Y130.46 E215.84939
G1 X50.177 Y130.115 E216.00353
G1 X49.578 Y129.701 E216.15789
G1 X48.937 Y129.134 E216.33932
G1 X48.782 Y128.978 E216.38594
G1 X48.299 Y128.435 E216.54001
G1 X47.877 Y127.841 E216.69448
G1 X47.524 Y127.205 E216.84869
G1 X47.242 Y126.534 E217.00299
G1 X47.036 Y125.837 E217.15707
G1 X46.907 Y125.12 E217.31152
G1 X46.857 Y124.273 E217.4914
G1 X46.87 Y121.857 E218.0036
G1 X46.914 Y121.131 E218.15779
G1 X47.037 Y120.414 E218.31201
G1 X47.238 Y119.714 E218.46641
G1 X47.515 Y119.041 E218.6207
G1 X47.998 Y118.195 E218.82722
G1 X48.181 Y117.923 E218.89672
