;FLAVOR:UltiGCode
;TIME:4093
;MATERIAL:7888
;MATERIAL2:0
;NOZZLE_DIAMETER:0.4
;Generated with Cura_SteamEngine 2.6.2

;LAYER_COUNT:56
;LAYER:0
M107
G0 F4500 X38.852 Y89.916 Z0.27
G0 X38.72 Y89.98
;TYPE:SKIRT
G1 F1800 X38.852 Y89.916 E0.01386
G1 X39.583 Y89.606 E0.0889
G1 X40.341 Y89.372 E0.16386
G1 X41.119 Y89.214 E0.23889
G1 X41.908 Y89.136 E0.31381
G1 X42.702 Y89.138 E0.38884
G1 X43.491 Y89.219 E0.4638
G1 X44.268 Y89.38 E0.53878
G1 X44.841 Y89.552 E0.59532
G1 X47.175 Y90.352 E0.82848
G1 X47.912 Y90.647 E0.9035
G1 X48.615 Y91.015 E0.97848
G1 X49.278 Y91.451 E1.05347
G1 X49.894 Y91.952 E1.1285
G1 X50.456 Y92.512 E1.20348
G1 X50.998 Y93.18 E1.28477
G1 X51.222 Y93.489 E1.32083
G1 X51.655 Y94.154 E1.39582
G1 X52.018 Y94.859 E1.47076
G1 X52.309 Y95.598 E1.54581
G1 X52.524 Y96.361 E1.62072
G1 X52.661 Y97.143 E1.69575
G1 X52.719 Y97.934 E1.7707
G1 X52.697 Y98.727 E1.84567
G1 X52.614 Y99.403 E1.91003
G1 X52.544 Y99.824 E1.95036
G1 X52.394 Y100.512 E2.0169
G1 X53.503 Y100.681 E2.12291
G1 X145.091 Y111.35 E10.8365
G1 X151.135 Y93.571 E12.61105
G1 X151.428 Y92.834 E12.686
G1 X151.794 Y92.13 E12.76098
G1 X152.228 Y91.466 E12.83594
G1 X152.727 Y90.849 E12.91093
G1 X153.286 Y90.286 E12.9859
G1 X153.899 Y89.782 E13.0609
G1 X154.559 Y89.341 E13.13591
G1 X155.134 Y89.03 E13.19769
G1 X155.265 Y88.966 E13.21146
G1 X155.995 Y88.654 E13.28649
G1 X156.752 Y88.417 E13.36145
G1 X157.529 Y88.258 E13.43639
G1 X158.319 Y88.177 E13.51144
G1 X159.112 Y88.177 E13.58638
G1 X159.902 Y88.256 E13.66141
G1 X160.679 Y88.414 E13.73634
G1 X161.243 Y88.581 E13.79192
G1 X163.85 Y89.462 E14.05197
G1 X164.588 Y89.754 E14.12697
G1 X165.293 Y90.118 E14.20195
G1 X165.958 Y90.552 E14.27699
G1 X166.575 Y91.05 E14.35192
G1 X167.14 Y91.608 E14.42696
G1 X167.645 Y92.219 E14.50187
G1 X168.086 Y92.879 E14.57688
G1 X168.304 Y93.267 E14.61894
G1 X168.369 Y93.391 E14.63217
G1 X168.701 Y94.111 E14.7071
G1 X168.96 Y94.862 E14.78217
G1 X169.141 Y95.634 E14.8571
G1 X169.244 Y96.421 E14.93211
G1 X169.267 Y97.214 E15.00708
G1 X169.21 Y98.005 E15.08202
G1 X168.981 Y99.157 E15.19301
G1 X168.548 Y100.712 E15.34555
G1 X168.333 Y102.01 E15.46988
G1 X168.261 Y103.313 E15.5932
G1 X168.328 Y104.622 E15.71707
G1 X168.536 Y105.914 E15.84073
G1 X168.881 Y107.175 E15.96428
G1 X169.382 Y108.444 E16.09321
G1 X170.199 Y110.054 E16.26382
G1 X170.522 Y110.779 E16.33882
G1 X170.77 Y111.532 E16.41374
G1 X170.942 Y112.307 E16.48876
G1 X171.035 Y113.095 E16.56374
G1 X171.047 Y113.888 E16.63869
G1 X170.98 Y114.679 E16.71371
G1 X170.834 Y115.459 E16.7887
G1 X170.632 Y116.158 E16.85746
G1 X165.42 Y131.462 E18.38525
G1 X165.126 Y132.199 E18.46024
G1 X164.76 Y132.903 E18.53522
G1 X164.295 Y133.608 E18.61503
G1 X163.748 Y134.347 E18.70191
G1 X163.244 Y134.96 E18.77691
G1 X162.681 Y135.52 E18.85195
G1 X162.011 Y136.059 E18.93321
G1 X161.263 Y136.596 E19.02022
G1 X160.596 Y137.026 E19.09522
G1 X159.889 Y137.386 E19.17019
G1 X159.105 Y137.688 E19.24959
G1 X158.244 Y137.968 E19.33515
G1 X157.478 Y138.175 E19.41013
G1 X156.696 Y138.304 E19.48503
G1 X155.852 Y138.354 E19.56493
G1 X154.929 Y138.359 E19.65215
G1 X153.973 Y138.306 E19.74263
G1 X43.99 Y125.473 E30.20654
G1 X43.528 Y126.822 E30.34129
G1 X43.122 Y127.792 E30.44066
G1 X42.915 Y128.206 E30.4844
G1 X42.524 Y128.897 E30.55943
G1 X42.067 Y129.545 E30.63436
G1 X41.546 Y130.144 E30.70938
G1 X40.968 Y130.687 E30.78432
G1 X40.338 Y131.17 E30.85934
G1 X39.663 Y131.586 E30.93427
G1 X38.949 Y131.933 E31.00929
G1 X38.045 Y132.253 E31.09991
G1 X37.655 Y132.365 E31.13826
G1 X36.882 Y132.545 E31.21326
G1 X36.095 Y132.647 E31.28825
G1 X35.302 Y132.669 E31.36322
G1 X34.511 Y132.611 E31.43817
G1 X33.729 Y132.474 E31.51319
G1 X32.987 Y132.266 E31.58602
G1 X30.663 Y131.49 E31.81755
G1 X29.924 Y131.201 E31.89254
G1 X29.218 Y130.839 E31.96752
G1 X28.551 Y130.408 E32.04256
G1 X27.932 Y129.912 E32.11752
G1 X27.366 Y129.356 E32.1925
G1 X26.858 Y128.746 E32.26751
G1 X26.414 Y128.089 E32.34245
G1 X26.081 Y127.477 E32.40829
G1 X26.017 Y127.346 E32.42207
G1 X25.705 Y126.616 E32.49709
G1 X25.468 Y125.859 E32.57205
G1 X25.309 Y125.082 E32.647
G1 X25.228 Y124.292 E32.72204
G1 X25.228 Y123.499 E32.79698
G1 X25.307 Y122.709 E32.87201
G1 X25.465 Y121.932 E32.94694
G1 X25.632 Y121.368 E33.00252
G1 X34.695 Y94.545 E35.67808
G1 X34.987 Y93.807 E35.75308
G1 X35.351 Y93.102 E35.82806
G1 X35.785 Y92.438 E35.90302
G1 X36.283 Y91.82 E35.97802
G1 X36.84 Y91.256 E36.05293
G1 X37.452 Y90.75 E36.12797
G1 X38.112 Y90.309 E36.20299
G1 X38.72 Y89.98 E36.26831
G0 F4500 X38.873 Y90.295
G1 F1800 X39.005 Y90.231 E36.28218
G1 X39.719 Y89.929 E36.35544
G1 X40.461 Y89.702 E36.42876
G1 X41.222 Y89.553 E36.50204
G1 X41.995 Y89.483 E36.57539
G1 X42.77 Y89.492 E36.64863
G1 X43.541 Y89.582 E36.72199
G1 X44.298 Y89.75 E36.79526
G1 X44.728 Y89.884 E36.83783
G1 X47.062 Y90.684 E37.07099
G1 X47.782 Y90.973 E37.1443
G1 X48.468 Y91.334 E37.21756
G1 X49.113 Y91.764 E37.29081
G1 X49.711 Y92.259 E37.36417
G1 X50.255 Y92.812 E37.43748
G1 X50.715 Y93.385 E37.50692
G1 X50.939 Y93.694 E37.54298
G1 X51.361 Y94.345 E37.6163
G1 X51.714 Y95.036 E37.68963
G1 X51.994 Y95.759 E37.76289
G1 X52.198 Y96.507 E37.83616
G1 X52.324 Y97.273 E37.90952
G1 X52.371 Y98.047 E37.9828
G1 X52.337 Y98.822 E38.05611
G1 X52.269 Y99.345 E38.10595
G1 X52.199 Y99.766 E38.14628
G1 X52.033 Y100.524 E38.21961
G1 X51.949 Y100.798 E38.24669
G1 X53.464 Y101.03 E38.39152
G1 X145.331 Y111.731 E47.13165
G1 X151.466 Y93.684 E48.93295
G1 X151.754 Y92.964 E49.00623
G1 X152.113 Y92.276 E49.07956
G1 X152.542 Y91.63 E49.15284
G1 X153.035 Y91.031 E49.22616
G1 X153.587 Y90.486 E49.29946
G1 X154.192 Y90.001 E49.37274
G1 X154.844 Y89.58 E49.44608
G1 X155.288 Y89.345 E49.49355
G1 X155.419 Y89.281 E49.50733
G1 X156.132 Y88.977 E49.58058
G1 X156.873 Y88.748 E49.65387
G1 X157.634 Y88.596 E49.7272
G1 X158.406 Y88.524 E49.80047
G1 X159.182 Y88.531 E49.87381
G1 X159.953 Y88.618 E49.94713
G1 X160.71 Y88.784 E50.02037
G1 X161.131 Y88.913 E50.06198
G1 X163.738 Y89.794 E50.32203
G1 X164.459 Y90.08 E50.39533
G1 X165.147 Y90.438 E50.46862
G1 X165.794 Y90.866 E50.54193
G1 X166.394 Y91.358 E50.61525
G1 X166.94 Y91.909 E50.68855
G1 X167.426 Y92.513 E50.76182
G1 X167.994 Y93.429 E50.86367
G1 X168.059 Y93.553 E50.8769
G1 X168.383 Y94.258 E50.95022
G1 X168.633 Y94.992 E51.0235
G1 X168.806 Y95.748 E51.09679
G1 X168.9 Y96.518 E51.17009
G1 X168.915 Y97.294 E51.24344
G1 X168.85 Y98.067 E51.31674
G1 X168.644 Y99.063 E51.41286
G1 X168.204 Y100.644 E51.56794
G1 X167.984 Y101.97 E51.69496
G1 X167.91 Y103.312 E51.82197
G1 X167.979 Y104.66 E51.94952
G1 X168.194 Y105.992 E52.07703
G1 X168.549 Y107.288 E52.20401
G1 X169.058 Y108.579 E52.33515
G1 X169.887 Y110.212 E52.50821
G1 X170.202 Y110.921 E52.58153
G1 X170.442 Y111.658 E52.65478
G1 X170.605 Y112.417 E52.72814
G1 X170.69 Y113.188 E52.80144
G1 X170.694 Y113.963 E52.87468
G1 X170.619 Y114.735 E52.94797
G1 X170.464 Y115.495 E53.02127
G1 X170.3 Y116.045 E53.07551
G1 X165.088 Y131.349 E54.60331
G1 X164.801 Y132.069 E54.67655
G1 X164.441 Y132.756 E54.74985
G1 X164.013 Y133.4 E54.82292
G1 X163.466 Y134.139 E54.9098
G1 X162.973 Y134.738 E54.98312
G1 X162.421 Y135.283 E55.05642
G1 X161.806 Y135.775 E55.13085
G1 X161.058 Y136.312 E55.21786
G1 X160.406 Y136.731 E55.2911
G1 X159.714 Y137.081 E55.36439
G1 X158.997 Y137.355 E55.43692
G1 X158.136 Y137.635 E55.52248
G1 X157.387 Y137.837 E55.59579
G1 X156.621 Y137.96 E55.6691
G1 X155.85 Y138.004 E55.74208
G1 X154.927 Y138.009 E55.82931
G1 X154.014 Y137.958 E55.91572
G1 X43.751 Y125.093 E66.40626
G1 X43.197 Y126.709 E66.56769
G1 X42.809 Y127.635 E66.66257
G1 X42.602 Y128.049 E66.70631
G1 X42.219 Y128.724 E66.77965
G1 X41.77 Y129.356 E66.85292
G1 X41.258 Y129.939 E66.92624
G1 X40.688 Y130.465 E66.99953
G1 X40.067 Y130.93 E67.07285
G1 X39.402 Y131.329 E67.14613
G1 X38.699 Y131.657 E67.21944
G1 X37.948 Y131.917 E67.29455
G1 X37.558 Y132.029 E67.33289
G1 X36.803 Y132.204 E67.40613
G1 X36.033 Y132.301 E67.47947
G1 X35.258 Y132.318 E67.55272
G1 X34.484 Y132.255 E67.62611
G1 X33.722 Y132.113 E67.69936
G1 X33.098 Y131.934 E67.7607
G1 X30.774 Y131.158 E67.99224
G1 X30.052 Y130.874 E68.06556
G1 X29.363 Y130.518 E68.13885
G1 X28.714 Y130.093 E68.21216
G1 X28.112 Y129.604 E68.28545
G1 X27.564 Y129.055 E68.35875
G1 X27.076 Y128.452 E68.43206
G1 X26.652 Y127.803 E68.50532
G1 X26.396 Y127.323 E68.55673
G1 X26.332 Y127.192 E68.5705
G1 X26.028 Y126.479 E68.64375
G1 X25.799 Y125.738 E68.71704
G1 X25.647 Y124.977 E68.79038
G1 X25.575 Y124.205 E68.86365
G1 X25.582 Y123.429 E68.93698
G1 X25.669 Y122.658 E69.01031
G1 X25.835 Y121.901 E69.08354
G1 X25.964 Y121.48 E69.12515
G1 X35.027 Y94.657 E71.80071
G1 X35.313 Y93.936 E71.87401
G1 X35.671 Y93.248 E71.9473
G1 X36.099 Y92.601 E72.02061
G1 X36.59 Y92.001 E72.09387
G1 X37.141 Y91.455 E72.16718
G1 X37.746 Y90.969 E72.24051
G1 X38.397 Y90.547 E72.31382
G1 X38.873 Y90.295 E72.36472
G0 F4500 X39.026 Y90.61
G1 F1800 X39.158 Y90.546 E72.37858
G1 X39.856 Y90.252 E72.45016
G1 X40.581 Y90.033 E72.52173
G1 X41.325 Y89.892 E72.59329
G1 X42.08 Y89.83 E72.66487
G1 X42.837 Y89.848 E72.73643
G1 X43.588 Y89.946 E72.808
G1 X44.614 Y90.215 E72.90824
G1 X46.948 Y91.015 E73.1414
G1 X47.651 Y91.298 E73.21301
G1 X48.32 Y91.653 E73.28458
G1 X48.947 Y92.077 E73.35611
G1 X49.527 Y92.565 E73.42774
G1 X50.051 Y93.111 E73.49925
G1 X50.431 Y93.591 E73.55711
G1 X50.655 Y93.9 E73.59317
G1 X51.067 Y94.536 E73.66478
G1 X51.409 Y95.211 E73.73629
G1 X51.678 Y95.919 E73.80786
G1 X51.871 Y96.652 E73.87949
G1 X51.986 Y97.4 E73.95101
G1 X52.021 Y98.157 E74.02262
G1 X51.924 Y99.288 E74.12989
G1 X51.854 Y99.709 E74.17022
G1 X51.69 Y100.448 E74.24176
G1 X51.576 Y100.822 E74.27871
G1 X51.488 Y101.082 E74.30465
G1 X53.404 Y101.374 E74.4878
G1 X145.572 Y112.111 E83.25658
G1 X151.798 Y93.797 E85.08452
G1 X152.079 Y93.094 E85.15607
G1 X152.433 Y92.424 E85.22768
G1 X152.855 Y91.795 E85.29926
G1 X153.342 Y91.215 E85.37082
G1 X153.886 Y90.689 E85.44233
G1 X154.484 Y90.223 E85.51398
G1 X155.441 Y89.659 E85.61895
G1 X155.572 Y89.595 E85.63273
G1 X156.27 Y89.299 E85.70438
G1 X156.994 Y89.078 E85.77591
G1 X157.738 Y88.935 E85.8475
G1 X158.492 Y88.871 E85.91901
G1 X159.249 Y88.886 E85.99056
G1 X160.001 Y88.982 E86.06221
G1 X161.019 Y89.245 E86.16156
G1 X163.626 Y90.126 E86.42161
G1 X164.33 Y90.406 E86.49321
G1 X165 Y90.758 E86.56473
G1 X165.629 Y91.18 E86.63631
G1 X166.211 Y91.665 E86.7079
G1 X166.738 Y92.209 E86.77948
G1 X167.205 Y92.805 E86.85103
G1 X167.684 Y93.592 E86.93809
G1 X167.749 Y93.716 E86.95132
G1 X168.065 Y94.404 E87.02287
G1 X168.306 Y95.122 E87.09444
G1 X168.47 Y95.861 E87.16598
G1 X168.556 Y96.614 E87.2376
G1 X168.562 Y97.371 E87.30914
G1 X168.488 Y98.125 E87.38073
G1 X168.307 Y98.97 E87.46239
G1 X167.862 Y100.569 E87.61924
G1 X167.636 Y101.93 E87.74962
G1 X167.559 Y103.32 E87.88117
G1 X167.63 Y104.688 E88.01062
G1 X167.852 Y106.067 E88.14262
G1 X168.216 Y107.396 E88.27283
G1 X168.743 Y108.732 E88.40855
G1 X169.575 Y110.371 E88.58225
G1 X169.881 Y111.063 E88.65375
G1 X170.113 Y111.784 E88.72533
G1 X170.268 Y112.526 E88.79696
G1 X170.344 Y113.279 E88.86848
G1 X170.34 Y114.036 E88.94002
G1 X170.256 Y114.789 E89.01162
G1 X170.093 Y115.529 E89.08323
G1 X169.969 Y115.932 E89.12307
G1 X164.757 Y131.236 E90.65087
G1 X164.475 Y131.939 E90.72245
G1 X164.121 Y132.609 E90.79406
G1 X163.732 Y133.192 E90.86029
G1 X163.185 Y133.931 E90.94717
G1 X162.703 Y134.515 E91.01873
G1 X162.162 Y135.045 E91.0903
G1 X161.602 Y135.491 E91.15795
G1 X160.854 Y136.028 E91.24497
G1 X160.217 Y136.436 E91.31645
G1 X159.539 Y136.775 E91.38809
G1 X158.889 Y137.022 E91.4538
G1 X158.028 Y137.302 E91.53936
G1 X157.296 Y137.498 E91.61097
G1 X156.548 Y137.616 E91.68253
G1 X155.848 Y137.654 E91.74878
G1 X154.925 Y137.659 E91.836
G1 X154.054 Y137.611 E91.91844
G1 X43.511 Y124.713 E102.43562
G1 X42.866 Y126.595 E102.62362
G1 X42.496 Y127.479 E102.71418
G1 X42.289 Y127.893 E102.75792
G1 X41.915 Y128.551 E102.82944
G1 X41.473 Y129.167 E102.90109
G1 X40.969 Y129.732 E102.97264
G1 X40.409 Y130.242 E103.04422
G1 X39.798 Y130.689 E103.11576
G1 X39.143 Y131.07 E103.18737
G1 X38.452 Y131.379 E103.2589
G1 X37.851 Y131.58 E103.31878
G1 X37.461 Y131.692 E103.35713
G1 X36.724 Y131.863 E103.42862
G1 X35.972 Y131.954 E103.50021
G1 X35.214 Y131.966 E103.57185
G1 X34.46 Y131.898 E103.64339
G1 X33.717 Y131.751 E103.71496
G1 X33.209 Y131.602 E103.76499
G1 X30.885 Y130.826 E103.99653
G1 X30.18 Y130.548 E104.06814
G1 X29.508 Y130.198 E104.13975
G1 X28.877 Y129.779 E104.21132
G1 X28.294 Y129.296 E104.28287
G1 X27.765 Y128.754 E104.35444
G1 X27.296 Y128.159 E104.42604
G1 X26.893 Y127.518 E104.49759
G1 X26.71 Y127.17 E104.53474
G1 X26.646 Y127.039 E104.54852
G1 X26.35 Y126.341 E104.62017
G1 X26.129 Y125.617 E104.6917
G1 X25.986 Y124.873 E104.7633
G1 X25.922 Y124.119 E104.83481
G1 X25.937 Y123.362 E104.90636
G1 X26.033 Y122.61 E104.978
G1 X26.296 Y121.592 E105.07736
G1 X35.359 Y94.769 E107.75291
G1 X35.638 Y94.066 E107.82438
G1 X35.991 Y93.395 E107.89603
G1 X36.412 Y92.766 E107.96756
G1 X36.898 Y92.184 E108.03921
G1 X37.441 Y91.657 E108.11072
G1 X38.038 Y91.19 E108.18235
G1 X38.68 Y90.789 E108.25388
G1 X39.026 Y90.61 E108.29069
G0 F4500 X39.31 Y90.861
G1 F1800 X39.992 Y90.575 E108.36058
G1 X40.7 Y90.364 E108.43039
G1 X41.426 Y90.232 E108.50012
G1 X42.163 Y90.178 E108.56996
G1 X42.901 Y90.205 E108.63974
G1 X43.632 Y90.311 E108.70955
G1 X44.501 Y90.546 E108.79462
G1 X46.835 Y91.346 E109.02778
G1 X47.52 Y91.623 E109.0976
G1 X48.171 Y91.972 E109.1674
G1 X48.78 Y92.39 E109.23721
G1 X49.34 Y92.871 E109.30697
G1 X49.846 Y93.409 E109.37676
G1 X50.148 Y93.796 E109.42315
G1 X50.372 Y94.105 E109.45922
G1 X50.772 Y94.726 E109.52902
G1 X51.103 Y95.386 E109.5988
G1 X51.361 Y96.078 E109.66859
G1 X51.543 Y96.794 E109.7384
G1 X51.646 Y97.526 E109.80826
G1 X51.669 Y98.264 E109.87803
G1 X51.579 Y99.23 E109.96971
G1 X51.509 Y99.651 E110.01004
G1 X51.244 Y100.71 E110.11321
G1 X51.023 Y101.365 E110.17853
G1 X53.365 Y101.722 E110.40241
G1 X145.812 Y112.491 E119.19772
G1 X152.129 Y93.909 E121.05242
G1 X152.404 Y93.224 E121.12217
G1 X152.752 Y92.572 E121.19201
G1 X153.168 Y91.962 E121.26178
G1 X153.648 Y91.4 E121.33163
G1 X154.185 Y90.893 E121.40142
G1 X154.774 Y90.448 E121.47118
G1 X155.595 Y89.974 E121.56077
G1 X155.726 Y89.91 E121.57454
G1 X156.406 Y89.622 E121.64433
G1 X157.114 Y89.409 E121.7142
G1 X157.84 Y89.274 E121.78398
G1 X158.576 Y89.219 E121.85373
G1 X159.315 Y89.243 E121.9236
G1 X160.046 Y89.347 E121.99337
G1 X160.907 Y89.576 E122.07757
G1 X163.514 Y90.457 E122.33762
G1 X164.2 Y90.731 E122.40742
G1 X164.852 Y91.078 E122.47722
G1 X165.463 Y91.493 E122.54702
G1 X166.026 Y91.971 E122.61681
G1 X166.534 Y92.508 E122.68667
G1 X166.98 Y93.096 E122.75641
G1 X167.374 Y93.754 E122.82888
G1 X167.439 Y93.878 E122.84211
G1 X167.746 Y94.55 E122.91193
G1 X167.979 Y95.251 E122.98174
G1 X168.134 Y95.973 E123.05152
G1 X168.211 Y96.708 E123.12136
G1 X168.207 Y97.447 E123.1912
G1 X168.124 Y98.181 E123.261
G1 X167.969 Y98.876 E123.32829
G1 X167.522 Y100.484 E123.48601
G1 X167.287 Y101.898 E123.62147
G1 X167.209 Y103.309 E123.75501
G1 X167.282 Y104.733 E123.88976
G1 X167.509 Y106.141 E124.02453
G1 X167.883 Y107.506 E124.15828
G1 X168.421 Y108.87 E124.29684
G1 X169.263 Y110.529 E124.47265
G1 X169.561 Y111.205 E124.54246
G1 X169.784 Y111.909 E124.61225
G1 X169.93 Y112.633 E124.68204
G1 X169.997 Y113.369 E124.75188
G1 X169.985 Y114.107 E124.82163
G1 X169.892 Y114.84 E124.89146
G1 X169.638 Y115.819 E124.98704
G1 X164.426 Y131.123 E126.51483
G1 X164.15 Y131.809 E126.58471
G1 X163.802 Y132.46 E126.65447
G1 X163.451 Y132.983 E126.71399
G1 X162.904 Y133.722 E126.80088
G1 X162.433 Y134.292 E126.87075
G1 X161.903 Y134.806 E126.94052
G1 X161.398 Y135.206 E127.0014
G1 X160.65 Y135.743 E127.08842
G1 X160.028 Y136.141 E127.1582
G1 X159.366 Y136.469 E127.22802
G1 X158.781 Y136.689 E127.28708
G1 X157.92 Y136.969 E127.37264
G1 X157.206 Y137.16 E127.44248
G1 X156.476 Y137.271 E127.51226
G1 X155.846 Y137.304 E127.57188
G1 X154.923 Y137.309 E127.6591
G1 X154.095 Y137.263 E127.73747
G1 X43.271 Y124.332 E138.28139
G1 X42.535 Y126.482 E138.49614
G1 X42.182 Y127.322 E138.58224
G1 X41.975 Y127.736 E138.62598
