;FLAVOR:UltiGCode
;TIME:5132
;MATERIAL:9899
;MATERIAL2:0
;NOZZLE_DIAMETER:0.4
;Generated with Cura_SteamEngine 2.6.2

;LAYER_COUNT:66
;LAYER:0
M107
G0 F4500 X74.041 Y57.093 Z0.27
G0 X74.329 Y56.773
;TYPE:SKIRT
G1 F1800 X74.426 Y56.671 E0.0133
G1 X75.001 Y56.124 E0.0883
G1 X75.629 Y55.638 E0.16334
G1 X76.302 Y55.218 E0.23831
G1 X77.013 Y54.867 E0.31324
G1 X77.757 Y54.59 E0.38826
G1 X78.524 Y54.389 E0.46319
G1 X79.308 Y54.266 E0.53818
G1 X79.713 Y54.234 E0.57658
G1 X81.311 Y54.149 E0.7278
G1 X82.591 Y53.941 E0.85035
G1 X83.848 Y53.595 E0.97355
G1 X85.069 Y53.113 E1.0976
G1 X86.232 Y52.505 E1.22162
G1 X87.707 Y51.531 E1.38865
G1 X88.391 Y51.128 E1.46368
G1 X89.111 Y50.796 E1.5386
G1 X89.861 Y50.538 E1.61355
G1 X90.634 Y50.356 E1.6886
G1 X91.421 Y50.254 E1.76359
G1 X92.063 Y50.229 E1.82431
G1 X111.492 Y50.274 E3.66035
G1 X112.285 Y50.316 E3.7354
G1 X113.069 Y50.437 E3.81036
G1 X114.119 Y50.732 E3.91343
G1 X115.064 Y51.069 E4.00824
G1 X115.797 Y51.372 E4.08319
G1 X116.496 Y51.748 E4.1582
G1 X117.384 Y52.373 E4.26081
G1 X118.167 Y53.009 E4.35614
G1 X118.757 Y53.54 E4.43115
G1 X119.29 Y54.127 E4.50608
G1 X119.926 Y55.023 E4.60991
G1 X120.452 Y55.886 E4.70542
G1 X120.831 Y56.584 E4.78048
G1 X121.137 Y57.316 E4.85545
G1 X121.43 Y58.344 E4.95647
G1 X144.624 Y167.234 E15.47742
G1 X146.368 Y167.238 E15.64223
G1 X147.161 Y167.28 E15.71727
G1 X147.945 Y167.401 E15.79224
G1 X148.713 Y167.6 E15.86721
G1 X149.457 Y167.876 E15.9422
G1 X149.823 Y168.044 E15.98026
G1 X150.045 Y168.153 E16.00363
G1 X150.738 Y168.538 E16.07854
G1 X151.39 Y168.991 E16.15357
G1 X151.993 Y169.508 E16.22863
G1 X152.54 Y170.082 E16.30356
G1 X153.027 Y170.708 E16.37851
G1 X153.488 Y171.453 E16.4613
G1 X153.645 Y171.741 E16.4923
G1 X153.99 Y172.456 E16.56732
G1 X154.26 Y173.202 E16.64229
G1 X154.454 Y173.971 E16.71724
G1 X154.57 Y174.756 E16.79223
G1 X154.606 Y175.494 E16.86205
G1 X154.611 Y177.935 E17.09273
G1 X154.573 Y178.727 E17.16766
G1 X154.455 Y179.512 E17.24267
G1 X154.258 Y180.281 E17.31769
G1 X153.986 Y181.026 E17.39264
G1 X153.64 Y181.74 E17.46761
G1 X153.223 Y182.415 E17.54259
G1 X152.741 Y183.046 E17.61763
G1 X152.332 Y183.492 E17.67481
G1 X152.23 Y183.595 E17.68851
G1 X151.644 Y184.13 E17.7635
G1 X151.007 Y184.603 E17.83847
G1 X150.325 Y185.01 E17.91353
G1 X149.607 Y185.346 E17.98844
G1 X148.858 Y185.609 E18.06346
G1 X148.086 Y185.794 E18.13848
G1 X147.3 Y185.901 E18.21344
G1 X146.634 Y185.929 E18.27643
G1 X108.388 Y185.929 E21.89068
G1 X107.596 Y185.889 E21.96562
G1 X106.811 Y185.77 E22.04065
G1 X106.043 Y185.572 E22.1156
G1 X105.298 Y185.297 E22.19064
G1 X104.585 Y184.95 E22.26558
G1 X103.91 Y184.532 E22.34061
G1 X103.281 Y184.049 E22.41555
G1 X102.792 Y183.595 E22.4786
G1 X102.69 Y183.492 E22.4923
G1 X102.161 Y182.901 E22.56726
G1 X101.694 Y182.26 E22.6422
G1 X101.294 Y181.574 E22.71725
G1 X100.965 Y180.852 E22.79223
G1 X100.71 Y180.101 E22.86717
G1 X100.532 Y179.328 E22.94213
G1 X100.433 Y178.54 E23.01719
G1 X100.412 Y177.852 E23.08223
G1 X100.444 Y175.309 E23.32256
G1 X100.494 Y174.517 E23.39756
G1 X100.623 Y173.734 E23.47255
G1 X100.83 Y172.968 E23.54753
G1 X101.114 Y172.227 E23.62252
G1 X101.471 Y171.518 E23.69754
G1 X101.919 Y170.818 E23.77608
G1 X102.056 Y170.627 E23.79829
G1 X102.55 Y170.006 E23.87328
G1 X103.105 Y169.439 E23.94825
G1 X103.713 Y168.93 E24.02319
G1 X104.37 Y168.484 E24.09823
G1 X105.208 Y168.043 E24.18771
G1 X105.44 Y167.938 E24.21178
G1 X106.178 Y167.647 E24.28675
G1 X106.942 Y167.433 E24.36172
G1 X107.724 Y167.296 E24.43675
G1 X108.647 Y167.237 E24.52415
G1 X108.906 Y167.236 E24.54862
G1 X108.911 Y102.309 E30.68423
G1 X108.829 Y99.944 E30.90785
G1 X108.592 Y97.696 E31.12147
G1 X108.179 Y95.359 E31.34574
G1 X102.956 Y70.966 E33.70312
G1 X80.126 Y70.929 E35.86056
G1 X79.334 Y70.888 E35.93551
G1 X78.55 Y70.767 E36.01047
G1 X77.782 Y70.568 E36.08544
G1 X77.037 Y70.292 E36.16052
G1 X76.325 Y69.944 E36.23541
G1 X75.651 Y69.525 E36.31041
G1 X75.022 Y69.04 E36.38547
G1 X74.571 Y68.622 E36.44358
G1 X74.468 Y68.519 E36.45734
G1 X73.935 Y67.931 E36.53234
G1 X73.465 Y67.292 E36.6073
G1 X73.062 Y66.608 E36.68232
G1 X72.729 Y65.888 E36.75729
G1 X72.471 Y65.138 E36.83224
G1 X72.289 Y64.365 E36.90729
G1 X72.186 Y63.579 E36.9822
G1 X72.161 Y62.951 E37.04159
G1 X72.161 Y62.2 E37.11256
G1 X72.201 Y61.408 E37.1875
G1 X72.32 Y60.623 E37.26253
G1 X72.518 Y59.855 E37.33748
G1 X72.793 Y59.11 E37.41252
G1 X73.14 Y58.397 E37.48746
G1 X73.558 Y57.722 E37.56249
G1 X74.041 Y57.093 E37.63743
G1 X74.329 Y56.773 E37.67811
G0 F4500 X74.68 Y56.912
G1 F1800 X75.243 Y56.379 E37.75138
G1 X75.858 Y55.906 E37.8247
G1 X76.518 Y55.498 E37.89802
G1 X77.216 Y55.161 E37.97127
G1 X77.946 Y54.898 E38.04459
G1 X78.699 Y54.711 E38.11791
G1 X79.731 Y54.584 E38.21617
G1 X81.34 Y54.498 E38.36844
G1 X82.675 Y54.281 E38.49625
G1 X83.96 Y53.928 E38.62219
G1 X85.208 Y53.435 E38.74899
G1 X86.419 Y52.801 E38.87816
G1 X87.9 Y51.824 E39.04583
G1 X88.568 Y51.43 E39.11912
G1 X89.274 Y51.108 E39.19245
G1 X90.009 Y50.86 E39.26575
G1 X90.765 Y50.689 E39.339
G1 X91.535 Y50.596 E39.41229
G1 X92.062 Y50.579 E39.46212
G1 X111.491 Y50.624 E41.29816
G1 X112.266 Y50.666 E41.37151
G1 X113.032 Y50.787 E41.44479
G1 X114.002 Y51.061 E41.54005
G1 X114.947 Y51.398 E41.63486
G1 X115.663 Y51.696 E41.70814
G1 X116.344 Y52.066 E41.78138
G1 X117.163 Y52.645 E41.87617
G1 X117.946 Y53.281 E41.97149
G1 X118.522 Y53.8 E42.04476
G1 X119.042 Y54.376 E42.1181
G1 X119.628 Y55.206 E42.21411
G1 X120.154 Y56.069 E42.30962
G1 X120.523 Y56.751 E42.38289
G1 X120.819 Y57.467 E42.45611
G1 X121.088 Y58.417 E42.54942
G1 X144.341 Y167.584 E53.09713
G1 X146.367 Y167.588 E53.28859
G1 X147.142 Y167.63 E53.36193
G1 X147.908 Y167.751 E53.43522
G1 X148.658 Y167.95 E53.50854
G1 X149.669 Y168.358 E53.61157
G1 X149.891 Y168.467 E53.63494
G1 X150.568 Y168.845 E53.70821
G1 X151.203 Y169.29 E53.78149
G1 X151.79 Y169.798 E53.85485
G1 X152.32 Y170.363 E53.92806
G1 X152.79 Y170.981 E54.00143
G1 X153.181 Y171.62 E54.07222
G1 X153.338 Y171.908 E54.10322
G1 X153.674 Y172.607 E54.17651
G1 X153.936 Y173.338 E54.24989
G1 X154.121 Y174.091 E54.32317
G1 X154.228 Y174.859 E54.39644
G1 X154.256 Y175.495 E54.4566
G1 X154.261 Y177.936 E54.68728
G1 X154.223 Y178.71 E54.76051
G1 X154.105 Y179.477 E54.83384
G1 X153.908 Y180.227 E54.90712
G1 X153.636 Y180.953 E54.98039
G1 X153.29 Y181.648 E55.05375
G1 X152.875 Y182.303 E55.12703
G1 X152.394 Y182.912 E55.20037
G1 X152.083 Y183.246 E55.24349
G1 X151.981 Y183.349 E55.25719
G1 X151.407 Y183.871 E55.33051
G1 X150.783 Y184.332 E55.40382
G1 X150.115 Y184.725 E55.47707
G1 X149.41 Y185.048 E55.55035
G1 X148.675 Y185.297 E55.62368
G1 X147.919 Y185.469 E55.69695
G1 X147.149 Y185.561 E55.77023
G1 X146.634 Y185.579 E55.81893
G1 X108.388 Y185.579 E59.43318
G1 X107.613 Y185.539 E59.50651
G1 X106.847 Y185.42 E59.57977
G1 X106.097 Y185.222 E59.65307
G1 X105.371 Y184.948 E59.7264
G1 X104.678 Y184.601 E59.79964
G1 X104.024 Y184.184 E59.87294
G1 X103.416 Y183.702 E59.94626
G1 X103.041 Y183.349 E59.99493
G1 X102.939 Y183.246 E60.00863
G1 X102.422 Y182.667 E60.08198
G1 X101.968 Y182.039 E60.15521
G1 X101.581 Y181.367 E60.22849
G1 X101.265 Y180.658 E60.30184
G1 X101.024 Y179.921 E60.37512
G1 X100.859 Y179.163 E60.44843
G1 X100.774 Y178.392 E60.52173
G1 X100.762 Y177.856 E60.57239
G1 X100.794 Y175.313 E60.81273
G1 X100.843 Y174.539 E60.88602
G1 X100.972 Y173.774 E60.95933
G1 X101.18 Y173.027 E61.03261
G1 X101.463 Y172.305 E61.10589
G1 X101.818 Y171.616 E61.17913
G1 X102.203 Y171.022 E61.24603
G1 X102.34 Y170.831 E61.26824
G1 X102.824 Y170.225 E61.34153
G1 X103.368 Y169.672 E61.41484
G1 X103.966 Y169.178 E61.48813
G1 X104.611 Y168.748 E61.56139
G1 X105.352 Y168.361 E61.64039
G1 X105.584 Y168.256 E61.66445
G1 X106.306 Y167.973 E61.73774
G1 X107.054 Y167.766 E61.81108
G1 X107.819 Y167.637 E61.88439
G1 X108.649 Y167.587 E61.96297
G1 X109.256 Y167.584 E62.02033
G1 X109.261 Y102.297 E68.18995
G1 X109.179 Y99.923 E68.41443
G1 X108.938 Y97.642 E68.63119
G1 X108.525 Y95.304 E68.85555
G1 X103.239 Y70.616 E71.24144
G1 X80.127 Y70.579 E73.42553
G1 X79.352 Y70.538 E73.49887
G1 X78.586 Y70.417 E73.57215
G1 X77.836 Y70.218 E73.64548
G1 X77.111 Y69.943 E73.71876
G1 X76.418 Y69.595 E73.79204
G1 X75.765 Y69.177 E73.86531
G1 X75.158 Y68.694 E73.93861
G1 X74.818 Y68.375 E73.98267
G1 X74.715 Y68.272 E73.99643
G1 X74.196 Y67.696 E74.0697
G1 X73.738 Y67.07 E74.143
G1 X73.348 Y66.399 E74.21634
G1 X73.028 Y65.693 E74.28959
G1 X72.783 Y64.957 E74.3629
G1 X72.615 Y64.199 E74.43627
G1 X72.526 Y63.429 E74.50952
G1 X72.511 Y62.951 E74.55471
G1 X72.511 Y62.2 E74.62568
G1 X72.551 Y61.425 E74.69902
G1 X72.67 Y60.659 E74.77227
G1 X72.868 Y59.909 E74.84557
G1 X73.142 Y59.183 E74.9189
G1 X73.489 Y58.49 E74.99214
G1 X73.906 Y57.836 E75.06544
G1 X74.583 Y57.014 E75.16607
G1 X74.68 Y56.912 E75.17938
G0 F4500 X74.934 Y57.154
G1 F1800 X75.484 Y56.633 E75.25097
G1 X76.086 Y56.173 E75.32256
G1 X76.733 Y55.78 E75.3941
G1 X77.418 Y55.457 E75.46567
G1 X78.133 Y55.207 E75.53725
G1 X78.87 Y55.035 E75.60877
G1 X79.75 Y54.933 E75.69248
G1 X81.387 Y54.845 E75.8474
G1 X82.741 Y54.625 E75.97703
G1 X84.076 Y54.258 E76.10787
G1 X85.35 Y53.756 E76.23727
G1 X86.599 Y53.102 E76.37051
G1 X88.093 Y52.116 E76.53966
G1 X88.746 Y51.732 E76.61125
G1 X89.436 Y51.42 E76.68281
G1 X90.155 Y51.182 E76.75438
G1 X90.895 Y51.022 E76.82593
G1 X91.648 Y50.94 E76.89751
G1 X92.062 Y50.929 E76.93665
G1 X111.491 Y50.974 E78.77269
G1 X112.247 Y51.016 E78.84424
G1 X112.994 Y51.137 E78.91576
G1 X113.884 Y51.391 E79.00322
G1 X114.829 Y51.728 E79.09803
G1 X115.528 Y52.02 E79.16962
G1 X116.192 Y52.383 E79.24113
G1 X116.943 Y52.917 E79.32821
G1 X117.726 Y53.553 E79.42354
G1 X118.288 Y54.061 E79.49513
G1 X118.793 Y54.625 E79.56667
G1 X119.329 Y55.388 E79.65479
G1 X119.855 Y56.251 E79.75029
G1 X120.214 Y56.917 E79.82179
G1 X120.501 Y57.618 E79.89337
G1 X120.746 Y58.49 E79.97897
G1 X144.057 Y167.933 E90.55333
G1 X146.367 Y167.938 E90.77163
G1 X147.123 Y167.98 E90.84318
G1 X147.871 Y168.101 E90.91479
G1 X148.601 Y168.3 E90.98629
G1 X149.514 Y168.672 E91.07945
G1 X149.736 Y168.781 E91.10283
G1 X150.398 Y169.151 E91.17449
G1 X151.016 Y169.588 E91.24602
G1 X151.585 Y170.087 E91.31754
G1 X152.099 Y170.644 E91.38916
G1 X152.551 Y171.252 E91.46076
G1 X152.874 Y171.788 E91.51989
G1 X153.031 Y172.076 E91.55089
G1 X153.358 Y172.759 E91.62245
G1 X153.611 Y173.473 E91.69403
G1 X153.787 Y174.209 E91.76555
G1 X153.885 Y174.96 E91.83712
G1 X153.906 Y175.495 E91.88771
G1 X153.911 Y177.936 E92.11839
G1 X153.873 Y178.693 E92.19002
G1 X153.755 Y179.441 E92.26158
G1 X153.558 Y180.172 E92.33312
G1 X153.286 Y180.879 E92.40471
G1 X152.941 Y181.553 E92.47626
G1 X152.527 Y182.187 E92.54781
G1 X151.834 Y183 E92.64877
G1 X151.732 Y183.103 E92.66246
G1 X151.172 Y183.612 E92.73398
G1 X150.56 Y184.059 E92.8056
G1 X149.906 Y184.44 E92.87712
G1 X149.214 Y184.749 E92.94874
G1 X148.494 Y184.984 E93.02031
G1 X147.753 Y185.141 E93.09189
G1 X146.634 Y185.229 E93.19796
G1 X108.388 Y185.229 E96.81221
G1 X107.632 Y185.189 E96.88375
G1 X106.884 Y185.07 E96.95533
G1 X106.153 Y184.872 E97.02689
G1 X105.446 Y184.598 E97.09855
G1 X104.773 Y184.252 E97.17006
G1 X104.14 Y183.836 E97.24164
G1 X103.29 Y183.103 E97.34771
G1 X103.188 Y183 E97.3614
G1 X102.684 Y182.434 E97.43302
G1 X102.243 Y181.819 E97.50454
G1 X101.869 Y181.16 E97.57614
G1 X101.566 Y180.466 E97.64771
G1 X101.339 Y179.743 E97.71932
G1 X101.188 Y179.001 E97.79087
G1 X101.117 Y178.247 E97.86244
G1 X101.112 Y177.861 E97.89892
G1 X101.144 Y175.318 E98.13925
G1 X101.193 Y174.562 E98.21085
G1 X101.322 Y173.816 E98.28239
G1 X101.529 Y173.087 E98.354
G1 X101.811 Y172.384 E98.42558
G1 X102.166 Y171.715 E98.49715
G1 X102.488 Y171.226 E98.55248
G1 X102.625 Y171.035 E98.57469
G1 X103.098 Y170.444 E98.64623
G1 X103.631 Y169.906 E98.7178
G1 X104.218 Y169.427 E98.78939
G1 X104.852 Y169.012 E98.861
G1 X105.497 Y168.68 E98.92955
G1 X105.729 Y168.575 E98.95362
G1 X106.434 Y168.3 E99.02513
G1 X107.165 Y168.1 E99.09675
G1 X107.912 Y167.979 E99.16826
G1 X108.651 Y167.937 E99.23821
G1 X109.606 Y167.932 E99.32846
G1 X109.611 Y102.313 E105.52945
G1 X109.526 Y99.874 E105.76008
G1 X109.288 Y97.616 E105.97464
G1 X108.867 Y95.227 E106.20388
G1 X103.522 Y70.267 E108.61607
G1 X80.127 Y70.229 E110.8269
G1 X79.371 Y70.188 E110.89845
G1 X78.624 Y70.067 E110.96996
G1 X77.893 Y69.868 E111.04156
G1 X77.187 Y69.594 E111.11312
G1 X76.514 Y69.246 E111.18472
G1 X75.882 Y68.829 E111.25627
G1 X75.066 Y68.127 E111.35799
G1 X74.963 Y68.024 E111.37176
G1 X74.456 Y67.461 E111.44336
G1 X74.012 Y66.848 E111.51488
G1 X73.634 Y66.191 E111.58651
G1 X73.328 Y65.499 E111.65802
G1 X73.097 Y64.777 E111.72965
G1 X72.943 Y64.036 E111.80117
G1 X72.861 Y62.951 E111.904
G1 X72.861 Y62.2 E111.97497
G1 X72.901 Y61.444 E112.04651
G1 X73.02 Y60.696 E112.11808
G1 X73.218 Y59.965 E112.18965
G1 X73.492 Y59.258 E112.26131
G1 X73.838 Y58.585 E112.33282
G1 X74.254 Y57.952 E112.4044
G1 X74.837 Y57.256 E112.49019
G1 X74.934 Y57.154 E112.5035
G0 F4500 X75.187 Y57.395
G1 F1800 X75.725 Y56.888 E112.57336
G1 X76.313 Y56.442 E112.6431
G1 X76.947 Y56.062 E112.71295
G1 X77.618 Y55.753 E112.78276
G1 X78.318 Y55.519 E112.85251
G1 X79.04 Y55.361 E112.92235
G1 X79.769 Y55.283 E112.99163
G1 X81.415 Y55.195 E113.1474
G1 X82.825 Y54.966 E113.28239
G1 X84.176 Y54.595 E113.41479
G1 X85.504 Y54.071 E113.5497
G1 X86.775 Y53.405 E113.6853
G1 X88.286 Y52.408 E113.85637
G1 X88.923 Y52.035 E113.92613
G1 X89.597 Y51.733 E113.99592
G1 X90.3 Y51.506 E114.06574
G1 X91.023 Y51.356 E114.13551
G1 X92.061 Y51.279 E114.23387
G1 X111.49 Y51.324 E116.06992
G1 X112.227 Y51.366 E116.13968
G1 X112.956 Y51.487 E116.20951
G1 X113.766 Y51.721 E116.28919
G1 X114.711 Y52.058 E116.384
G1 X115.393 Y52.343 E116.45385
G1 X116.039 Y52.7 E116.5236
G1 X116.722 Y53.188 E116.60292
G1 X117.505 Y53.824 E116.69825
G1 X118.052 Y54.32 E116.76803
G1 X118.543 Y54.873 E116.83791
G1 X119.03 Y55.57 E116.91827
G1 X119.556 Y56.433 E117.01377
G1 X119.906 Y57.084 E117.08362
G1 X120.183 Y57.768 E117.15336
G1 X120.403 Y58.563 E117.23131
G1 X143.773 Y168.283 E127.83244
G1 X146.366 Y168.288 E128.07748
G1 X147.104 Y168.33 E128.14733
G1 X147.832 Y168.45 E128.21705
G1 X148.544 Y168.649 E128.28692
G1 X149.36 Y168.987 E128.37038
G1 X149.582 Y169.096 E128.39375
G1 X150.226 Y169.457 E128.46352
G1 X150.828 Y169.885 E128.53332
G1 X151.38 Y170.376 E128.60314
G1 X151.876 Y170.924 E128.67299
G1 X152.309 Y171.522 E128.74275
G1 X152.566 Y171.955 E128.79034
G1 X152.723 Y172.243 E128.82134
G1 X153.041 Y172.91 E128.89116
G1 X153.285 Y173.607 E128.96095
G1 X153.453 Y174.327 E129.03082
G1 X153.541 Y175.06 E129.10058
G1 X153.556 Y175.496 E129.14181
G1 X153.561 Y177.937 E129.37248
G1 X153.523 Y178.675 E129.44232
G1 X153.405 Y179.404 E129.51211
G1 X153.209 Y180.116 E129.58189
G1 X152.937 Y180.803 E129.65172
G1 X152.592 Y181.456 E129.72151
G1 X152.179 Y182.069 E129.79136
G1 X151.585 Y182.753 E129.87697
G1 X151.483 Y182.856 E129.89067
G1 X150.936 Y183.352 E129.96044
G1 X150.338 Y183.786 E130.03027
G1 X149.697 Y184.153 E130.10007
G1 X149.02 Y184.448 E130.16986
G1 X148.315 Y184.669 E130.23968
G1 X147.59 Y184.812 E130.30951
G1 X146.634 Y184.879 E130.40007
G1 X108.388 Y184.879 E134.01432
G1 X107.65 Y184.839 E134.08416
G1 X106.922 Y184.72 E134.15387
G1 X106.21 Y184.522 E134.22371
G1 X105.524 Y184.249 E134.29348
G1 X104.871 Y183.903 E134.36332
G1 X104.259 Y183.489 E134.43314
G1 X103.539 Y182.856 E134.52374
G1 X103.437 Y182.753 E134.53743
G1 X102.946 Y182.201 E134.60725
G1 X102.518 Y181.599 E134.67705
G1 X102.157 Y180.955 E134.74682
G1 X101.869 Y180.275 E134.8166
G1 X101.655 Y179.567 E134.8865
G1 X101.519 Y178.841 E134.9563
G1 X101.462 Y177.865 E135.04869
G1 X101.494 Y175.322 E135.28902
G1 X101.543 Y174.585 E135.35882
G1 X101.671 Y173.858 E135.42858
G1 X101.878 Y173.149 E135.49838
G1 X102.16 Y172.466 E135.56821
G1 X102.514 Y171.818 E135.63798
G1 X102.772 Y171.43 E135.68202
G1 X102.909 Y171.239 E135.70423
G1 X103.371 Y170.663 E135.77401
G1 X103.893 Y170.14 E135.84383
G1 X104.469 Y169.677 E135.91367
G1 X105.091 Y169.279 E135.98345
G1 X105.641 Y168.999 E136.04178
G1 X105.873 Y168.894 E136.06584
G1 X106.561 Y168.626 E136.13562
